%
(1001)
(T1  D=3 CR=0 TAPER=90deg - ZMIN=-1.125 - spot drill)
(T4  D=5.8 CR=0 TAPER=118deg - ZMIN=-14.375 - drill)
(T5  D=6 CR=0 - ZMIN=-12.375 - flat end mill)
(T7  D=4.2 CR=0 TAPER=118deg - ZMIN=-7.387 - drill)
G90 G94
G17
G21
T7
G28 G91 Z0
G90

(Drill1 - centre drill)
M9
T1 M6
S2000 M3
G54
G0 X-7.654 Y18.478
Z15
Z5
Z4.875
G1 Z-1.125 F30
G0 Z5
X-18.478 Y7.654
Z4.875
G1 Z-1.125 F30
G0 Z5
Y-7.654
Z4.875
G1 Z-1.125 F30
G0 Z5
X-7.654 Y-18.478
Z4.875
G1 Z-1.125 F30
G0 Z5
X7.654
Z4.875
G1 Z-1.125 F30
G0 Z5
X18.478 Y-7.654
Z4.875
G1 Z-1.125 F30
G0 Z5
Y7.654
Z4.875
G1 Z-1.125 F30
G0 Z5
X7.654 Y18.478
Z4.875
G1 Z-1.125 F30
G0 Z5
X0 Y0
Z4.875
G1 Z-1.125 F30
G0 Z5
Z15
T4
M5
G28 G91 Z0
G90

(Drill2 - 4.2mm)
M00
T7 M6
S2000 M3
G54
G0 X-7.654 Y18.478
Z15
Z5
Z4.875
G1 Z-7.387 F30
G0 Z5
X-18.478 Y7.654
Z4.875
G1 Z-7.387 F30
G0 Z5
Y-7.654
Z4.875
G1 Z-7.387 F30
G0 Z5
X-7.654 Y-18.478
Z4.875
G1 Z-7.387 F30
G0 Z5
X7.654
Z4.875
G1 Z-7.387 F30
G0 Z5
X18.478 Y-7.654
Z4.875
G1 Z-7.387 F30
G0 Z5
Y7.654
Z4.875
G1 Z-7.387 F30
G0 Z5
X7.654 Y18.478
Z4.875
G1 Z-7.387 F30
G0 Z5
Z15
T5
M5
G28 G91 Z0
G90

(Drill3 - 5.8mm)
M00
T4 M6
S2000 M3
G54
G0 X0 Y0
Z15
Z5
Z4.875
G1 Z-14.375 F30
G0 Z5
Z15
M5
G28 G91 Z0
G90

(Drill4 - 6mm reamer)
M00
T5 M6
S10000 M3
G54
M8
G0 X0 Y0
Z15
Z5
Z4.875
G1 Z-12.375 F50
G0 Z5
Z15
M9
G28 G91 Z0
G90
G28 G91 X0 Y0
G90
M30
%
