%
(1001)
(T1  D=3 CR=0 TAPER=90deg - ZMIN=-1 - spot drill)
(T3  D=2.5 CR=0 TAPER=118deg - ZMIN=-10.125 - drill)
G90 G94
G17
G21
T3
G28 G91 Z0
G90

(Drill5 - centre drill)
M9
T1 M6
S2000 M3
G54
M8
G0 X-7.079 Y7.063
Z15
Z5
Z4.875
G1 Z-1 F30
G0 Z5
X-10 Y-0.011
Z4.875
G1 Z-1 F30
G0 Z5
X-7.063 Y-7.079
Z4.875
G1 Z-1 F30
G0 Z5
X0.011 Y-10
Z4.875
G1 Z-1 F30
G0 Z5
X7.079 Y-7.063
Z4.875
G1 Z-1 F30
G0 Z5
X10 Y0.011
Z4.875
G1 Z-1 F30
G0 Z5
X7.063 Y7.079
Z4.875
G1 Z-1 F30
G0 Z5
X-0.011 Y10
Z4.875
G1 Z-1 F30
G0 Z5
X0 Y0
Z4.875
G1 Z-1 F30
G0 Z5
Z15
M5
G28 G91 Z0
G90

(Drill6 - 2.5mm)
M00
M9
T3 M6
S2000 M3
G54
G0 X-7.079 Y7.063
Z15
Z5
Z4.875
Z1.875
G1 Z-3.125 F30
G0 Z4.875
Z-1.125
G1 Z-6.125 F30
G0 Z4.875
Z-4.125
G1 Z-9.125 F30
G0 Z4.875
Z-7.125
G1 Z-10.125 F30
G0 Z5
X-10 Y-0.011
Z4.875
Z1.875
G1 Z-3.125 F30
G0 Z4.875
Z-1.125
G1 Z-6.125 F30
G0 Z4.875
Z-4.125
G1 Z-9.125 F30
G0 Z4.875
Z-7.125
G1 Z-10.125 F30
G0 Z5
X-7.063 Y-7.079
Z4.875
Z1.875
G1 Z-3.125 F30
G0 Z4.875
Z-1.125
G1 Z-6.125 F30
G0 Z4.875
Z-4.125
G1 Z-9.125 F30
G0 Z4.875
Z-7.125
G1 Z-10.125 F30
G0 Z5
X0.011 Y-10
Z4.875
Z1.875
G1 Z-3.125 F30
G0 Z4.875
Z-1.125
G1 Z-6.125 F30
G0 Z4.875
Z-4.125
G1 Z-9.125 F30
G0 Z4.875
Z-7.125
G1 Z-10.125 F30
G0 Z5
X7.079 Y-7.063
Z4.875
Z1.875
G1 Z-3.125 F30
G0 Z4.875
Z-1.125
G1 Z-6.125 F30
G0 Z4.875
Z-4.125
G1 Z-9.125 F30
G0 Z4.875
Z-7.125
G1 Z-10.125 F30
G0 Z5
X10 Y0.011
Z4.875
Z1.875
G1 Z-3.125 F30
G0 Z4.875
Z-1.125
G1 Z-6.125 F30
G0 Z4.875
Z-4.125
G1 Z-9.125 F30
G0 Z4.875
Z-7.125
G1 Z-10.125 F30
G0 Z5
X7.063 Y7.079
Z4.875
Z1.875
G1 Z-3.125 F30
G0 Z4.875
Z-1.125
G1 Z-6.125 F30
G0 Z4.875
Z-4.125
G1 Z-9.125 F30
G0 Z4.875
Z-7.125
G1 Z-10.125 F30
G0 Z5
X-0.011 Y10
Z4.875
Z1.875
G1 Z-3.125 F30
G0 Z4.875
Z-1.125
G1 Z-6.125 F30
G0 Z4.875
Z-4.125
G1 Z-9.125 F30
G0 Z4.875
Z-7.125
G1 Z-10.125 F30
G0 Z5
Z15
G28 G91 Z0
G90
G28 G91 X0 Y0
G90
M30
%
