%
(1001)
(T2  D=4.762 CR=0 TAPER=118deg - ZMIN=-2 - center drill)
(T3  D=3 CR=0 TAPER=118deg - ZMIN=-26.901 - drill)
(T6  D=10 CR=0 TAPER=118deg - ZMIN=-29.004 - drill)
G90 G94
G17
G21
T3
G28 G91 Z0
G90

(Centre drill)
M9
T2 M6
S6110 M3
G54
G0 X0 Y10
Z15
Z5
G1 Z-2 F30
G0 Z5
X-7.071 Y7.071
G1 Z-2 F30
G0 Z5
X-10 Y0
G1 Z-2 F30
G0 Z5
X-7.071 Y-7.071
G1 Z-2 F30
G0 Z5
X0 Y-10
G1 Z-2 F30
G0 Z5
X7.071 Y-7.071
G1 Z-2 F30
G0 Z5
X10 Y0
G1 Z-2 F30
G0 Z5
X7.071 Y7.071
G1 Z-2 F30
G0 Z5
X0 Y0
G1 Z-2 F30
G0 Z5
Z15
T6
M5
G28 G91 Z0
G90

(3mm drill)
M00
T3 M6
S9700 M3
G54
G0 X0 Y10
Z15
Z5
G1 Z-6.201 F30
G0 Z5
X-7.071 Y7.071
G1 Z-6.201 F30
G0 Z5
X-10 Y0
G1 Z-6.201 F30
G0 Z5
X-7.071 Y-7.071
G1 Z-6.201 F30
G0 Z5
X0 Y-10
G1 Z-6.201 F30
G0 Z5
X7.071 Y-7.071
G1 Z-6.201 F30
G0 Z5
X10 Y0
G1 Z-6.201 F30
G0 Z5
X7.071 Y7.071
G1 Z-6.201 F30
G0 Z5
Z15

(3mm drill)
X0 Y0
Z15
Z5
Z2
G1 Z-2.5 F30
G0 Z5
Z-0.5
G1 Z-5 F30
G0 Z5
Z-3
G1 Z-7.5 F30
G0 Z5
Z-5.5
G1 Z-10 F30
G0 Z5
Z-8
G1 Z-12.5 F30
G0 Z5
Z-10.5
G1 Z-15 F30
G0 Z5
Z-13
G1 Z-17.5 F30
G0 Z5
Z-15.5
G1 Z-20 F30
G0 Z5
Z-18
G1 Z-22.5 F30
G0 Z5
Z-20.5
G1 Z-25 F30
G0 Z5
Z-23
G1 Z-26.901 F30
G0 Z5
Z15
M5
G28 G91 Z0
G90

(10mm drill)
M00
T6 M6
S2910 M3
G54
G0 X0 Y0
Z15
Z5
Z2
G1 Z-2.5 F30
G0 Z5
Z-0.5
G1 Z-5 F30
G0 Z5
Z-3
G1 Z-7.5 F30
G0 Z5
Z-5.5
G1 Z-10 F30
G0 Z5
Z-8
G1 Z-12.5 F30
G0 Z5
Z-10.5
G1 Z-15 F30
G0 Z5
Z-13
G1 Z-17.5 F30
G0 Z5
Z-15.5
G1 Z-20 F30
G0 Z5
Z-18
G1 Z-22.5 F30
G0 Z5
Z-20.5
G1 Z-25 F30
G0 Z5
Z-23
G1 Z-27.5 F30
G0 Z5
Z-25.5
G1 Z-29.004 F30
G0 Z5
Z15
G28 G91 Z0
G90
G28 G91 X0 Y0
G90
M30
%
