%
(1001)
(T2  D=6.2 CR=0 TAPER=118deg - ZMIN=-18.863 - drill)
(T3  D=4.762 CR=0 TAPER=118deg - ZMIN=-1.9 - center drill)
(T5  D=8 CR=0 - ZMIN=-0.4 - flat end mill)
(T7  D=6 CR=0 - ZMIN=-4.2 - flat end mill)
G90 G94
G17
G21
T7
G28 G91 Z0
G90

(2D Pocket - 8mm end mill)
M9
T5 M6
S2000 M3
G54
G0 X-2.441 Y0.251
Z15
Z5
G1 Z3.3 F100
X-2.443 Y0.213 Z3.058
X-2.448 Y0.105 Z2.838
X-2.449 Y-0.065 Z2.662
X-2.439 Y-0.281 Z2.546
X-2.414 Y-0.52 Z2.5
G3 X5.115 Y0.52 Z2.083 I3.764 J0.52
X-2.414 Y-0.52 Z1.666 I-3.764 J-0.52
X5.115 Y0.52 Z1.249 I3.764 J0.52
X-2.414 Y-0.52 Z0.832 I-3.764 J-0.52
X5.115 Y0.52 Z0.416 I3.764 J0.52
X-2.414 Y-0.52 Z-0.001 I-3.764 J-0.52
X5.151 Y0 Z-0.4 I3.764 J0.52
X-5.151 I-5.151
X5.151 I5.151
X-1.666 Y0.008 I-3.409
X1.666 Y-0.008 I1.666 J-0.008
X-1.666 Y0.008 I-1.666 J0.008
G1 X-1.662 Y-0.116 Z-0.38
X-1.649 Y-0.238 Z-0.361
X-1.629 Y-0.348 Z-0.304
X-1.603 Y-0.456 Z-0.247
X-1.576 Y-0.541 Z-0.159
X-1.545 Y-0.624 Z-0.07
X-1.499 Y-0.728 Z0.153
X-1.482 Y-0.763 Z0.4
G0 Z15
T3
M5
G28 G91 Z0
G90

(2D Pocket - 6mm end mill)
M00
T7 M6
S2000 M3
G54
G0 X-10.714 Y2.492
Z15
Z5
G1 Z3.1 F100
X-10.708 Y2.52 Z2.918 F50
X-10.689 Y2.599 Z2.754
X-10.658 Y2.723 Z2.622
X-10.617 Y2.879 Z2.534
X-10.568 Y3.053 Z2.5
G2 X0 Y11 Z2.005 I10.568 J-3.053
G1 X0.019 Z2.004
G2 X11 Y0 Z1.401 I-0.019 J-11
X-11 Z0.194 I-11
X0 Y11 Z-0.409 I11
G1 X0.019 Z-0.41
G2 X11 Y0 Z-1.012 I-0.019 J-11
X-11 Z-2.219 I-11
X0 Y11 Z-2.822 I11
G1 X0.019 Z-2.823
G2 X11 Y0 Z-3.426 I-0.019 J-11
X-4.73 Y-9.931 Z-4.2 I-11
X0 Y11 I4.73 J9.931 F30
G1 X0.019
G2 X11 Y0 I-0.019 J-11
X-4.73 Y-9.931 I-11
G1 X-4.811 Y-9.885 Z-4.185 F100
X-4.883 Y-9.827 Z-4.171
X-4.94 Y-9.766 Z-4.128
X-4.987 Y-9.697 Z-4.085
X-5.018 Y-9.638 Z-4.019
X-5.042 Y-9.576 Z-3.953
X-5.063 Y-9.494 Z-3.785
X-5.067 Y-9.465 Z-3.6
G0 Z5
X-6.983 Y6.066
G1 Z3.1 F100
X-7.001 Y6.045 Z2.918 F50
X-7.055 Y5.983 Z2.754
X-7.136 Y5.885 Z2.622
X-7.238 Y5.76 Z2.534
X-7.349 Y5.618 Z2.5
G3 X-9.25 Y0 Z2.289 I7.349 J-5.617
X9.25 Z1.274 I9.25
X0 Y9.25 Z0.767 I-9.25
G1 X-0.019 Z0.766
G3 X-9.25 Y0 Z0.26 I0.019 J-9.25
X9.25 Z-0.755 I9.25
X0 Y9.25 Z-1.263 I-9.25
G1 X-0.019
G3 X-9.25 Y0 Z-1.77 I0.019 J-9.25
X9.25 Z-2.785 I9.25
X0 Y9.25 Z-3.292 I-9.25
G1 X-0.019 Z-3.293
G3 X-9.25 Y0 Z-3.8 I0.019 J-9.25
X-3.007 Y-8.748 Z-4.2 I9.25
X3.007 Y8.748 I3.007 J8.748 F30
X0 Y9.25 I-3.007 J-8.748
G1 X-0.019
G3 X-9.25 Y0 I0.019 J-9.25
X-3.007 Y-8.748 I9.25
G1 X-2.922 Y-8.784 Z-4.185 F100
X-2.843 Y-8.834 Z-4.171
X-2.78 Y-8.888 Z-4.128
X-2.725 Y-8.951 Z-4.085
X-2.688 Y-9.006 Z-4.019
X-2.657 Y-9.065 Z-3.953
X-2.627 Y-9.144 Z-3.785
X-2.619 Y-9.173 Z-3.6
G0 Z15
T2
M5
G28 G91 Z0
G90

(Centre drill)
M00
T3 M6
S2000 M3
G54
G0 X0 Y0
Z15
Z5
Z4.1
G1 Z-1.9 F30
G0 Z5
Z15
M5
G28 G91 Z0
G90

(Drill - 6.2mm centre hole)
M00
T2 M6
S3000 M3
G54
G0 X0 Y0
Z15
Z5
Z4.1
Z1.1
G1 Z-2.9 F30
G0 Z4.1
Z-0.9
G1 Z-4.9 F30
G0 Z4.1
Z-2.9
G1 Z-6.9 F30
G0 Z4.1
Z-4.9
G1 Z-8.9 F30
G0 Z4.1
Z-6.9
G1 Z-10.9 F30
G0 Z4.1
Z-8.9
G1 Z-12.9 F30
G0 Z4.1
Z-10.9
G1 Z-14.9 F30
G0 Z4.1
Z-12.9
G1 Z-16.9 F30
G0 Z4.1
Z-14.9
G1 Z-18.863 F30
G0 Z5
Z15
G28 G91 Z0
G90
G28 G91 X0 Y0
G90
M30
%
