%
(1001)
(T5  D=8 CR=0 - ZMIN=-5 - flat end mill)
G90 G94
G17
G21
G28 G91 Z0
G90

(2D Pocket4 - 8mm end mill)
M9
T5 M6
S2000 M3
G54
M8
G0 X-4.373 Y-28.757
Z15
Z5
G1 Z1 F100
Z-4.2
X-4.366 Y-28.756 Z-4.304
X-4.346 Y-28.753 Z-4.407
X-4.313 Y-28.748 Z-4.506
X-4.267 Y-28.74 Z-4.6
X-4.21 Y-28.731 Z-4.687
X-4.141 Y-28.72 Z-4.766
X-4.064 Y-28.708 Z-4.835
X-3.978 Y-28.695 Z-4.893
X-3.885 Y-28.68 Z-4.939
X-3.787 Y-28.664 Z-4.973
X-3.686 Y-28.648 Z-4.993
X-3.583 Y-28.632 Z-5
G2 X0 Y-28.35 I3.583 J-22.62
G3 X28.35 Y0 J28.35
X-0.071 Y28.35 I-28.35
X-28.35 Y0 J-28.279
X0 Y-28.35 I28.35
X1.45 Y-27.362 J1.558
G2 X2.844 Y-26.297 I1.577 J-0.619
G3 X26.45 Y0 I-2.844 J26.297
X-0.071 Y26.45 I-26.45
X-26.45 Y0 J-26.379
X2.844 Y-26.297 I26.45
X4.181 Y-25.155 I-0.168 J1.55
G2 X5.449 Y-23.938 I1.647 J-0.447
G3 X24.55 Y0 I-5.449 J23.938
X-0.071 Y24.55 I-24.55
X-24.55 Y0 J-24.479
X5.449 Y-23.938 I24.55
X6.646 Y-22.645 I-0.346 J1.521
G2 X7.76 Y-21.279 I1.703 J-0.252
G3 X22.65 Y0 I-7.76 J21.279
X-0.071 Y22.65 I-22.65
X-22.65 Y0 J-22.579
X7.76 Y-21.279 I22.65
X8.786 Y-19.842 I-0.535 J1.467
G2 X9.711 Y-18.337 I1.739 J-0.033
G3 X20.75 Y0 I-9.711 J18.337
X-0.071 Y20.75 I-20.75
X-20.75 Y0 J-20.679
X9.711 Y-18.337 I20.75
X10.531 Y-16.767 I-0.731 J1.381
G2 X11.23 Y-15.14 I1.749 J0.213
G3 X18.85 Y0 I-11.23 J15.14
X-0.071 Y18.85 I-18.85
X-18.85 Y0 J-18.779
X11.23 Y-15.14 I18.85
X11.804 Y-13.457 I-0.932 J1.257
G2 X12.234 Y-11.732 I1.722 J0.487
G3 X16.95 Y0 I-12.234 J11.732
X-0.071 Y16.95 I-16.95
X-16.95 Y0 J-16.879
X12.234 Y-11.732 I16.95
X12.522 Y-9.919 I-1.162 J1.114
G2 X12.633 Y-8.088 I1.696 J0.817
G3 X15 Y-0.071 I-12.633 J8.088
G1 Y0
G3 X-15 I-15
X0 Y-15 I15
X12.633 Y-8.088 J15
G1 X12.681 Y-8.021 Z-4.987
X12.736 Y-7.959 Z-4.974
X12.796 Y-7.903 Z-4.961
X12.887 Y-7.838 Z-4.904
X12.985 Y-7.786 Z-4.847
X13.068 Y-7.755 Z-4.759
X13.154 Y-7.734 Z-4.67
X13.21 Y-7.725 Z-4.559
X13.267 Y-7.72 Z-4.447
X13.306 Y-7.719 Z-4.2
G0 Z15
M9
G28 G91 Z0
G90
G28 G91 X0 Y0
G90
M30
%
