%
(1001)
(T2  D=4.762 CR=0 TAPER=118deg - ZMIN=-9 - center drill)
(T3  D=3 CR=0 TAPER=118deg - ZMIN=-22.901 - drill)
(T6  D=6 CR=0 - ZMIN=-24.004 - flat end mill)
G90 G94
G17
G21
T3
G28 G91 Z0
G90

(Drill1 - centre drill)
M9
T2 M6
S2000 M3
G54
G0 X0 Y30.5
Z15
Z5
G1 Z-1 F50
G0 Z5
X-21.567 Y21.567
G1 Z-1 F50
G0 Z5
X-30.5 Y0
G1 Z-1 F50
G0 Z5
X-21.567 Y-21.567
G1 Z-1 F50
G0 Z5
X0 Y-30.5
G1 Z-1 F50
G0 Z5
X21.567 Y-21.567
G1 Z-1 F50
G0 Z5
X30.5 Y0
G1 Z-1 F50
G0 Z5
X21.567 Y21.567
G1 Z-1 F50
G0 Z5
X0 Y0
G1 Z-1 F50
G0 Z5
Z15
T2
M5
G28 G91 Z0
G90

(Drill2 - 3mm)
M00
T3 M6
S2000 M3
G54
G0 X0 Y30.5
Z15
Z5
Z2
G1 Z-5 F30
G0 Z5
Z-3
G1 Z-10 F30
G0 Z5
Z-8
G1 Z-15 F30
G0 Z5
Z-13
G1 Z-19 F30
G0 Z5
X-21.567 Y21.567
Z2
G1 Z-5 F30
G0 Z5
Z-3
G1 Z-10 F30
G0 Z5
Z-8
G1 Z-15 F30
G0 Z5
Z-13
G1 Z-19 F30
G0 Z5
X-30.5 Y0
Z2
G1 Z-5 F30
G0 Z5
Z-3
G1 Z-10 F30
G0 Z5
Z-8
G1 Z-15 F30
G0 Z5
Z-13
G1 Z-19 F30
G0 Z5
X-21.567 Y-21.567
Z2
G1 Z-5 F30
G0 Z5
Z-3
G1 Z-10 F30
G0 Z5
Z-8
G1 Z-15 F30
G0 Z5
Z-13
G1 Z-19 F30
G0 Z5
X0 Y-30.5
Z2
G1 Z-5 F30
G0 Z5
Z-3
G1 Z-10 F30
G0 Z5
Z-8
G1 Z-15 F30
G0 Z5
Z-13
G1 Z-19 F30
G0 Z5
X21.567 Y-21.567
Z2
G1 Z-5 F30
G0 Z5
Z-3
G1 Z-10 F30
G0 Z5
Z-8
G1 Z-15 F30
G0 Z5
Z-13
G1 Z-19 F30
G0 Z5
X30.5 Y0
Z2
G1 Z-5 F30
G0 Z5
Z-3
G1 Z-10 F30
G0 Z5
Z-8
G1 Z-15 F30
G0 Z5
Z-13
G1 Z-19 F30
G0 Z5
X21.567 Y21.567
Z2
G1 Z-5 F30
G0 Z5
Z-3
G1 Z-10 F30
G0 Z5
Z-8
G1 Z-15 F30
G0 Z5
Z-13
G1 Z-19 F30
G0 Z5
Z15

(Drill3 - 3mm)
X0 Y0
Z15
Z5
Z2
G1 Z-5 F30
G0 Z5
Z-3
G1 Z-10 F30
G0 Z5
Z-8
G1 Z-15 F30
G0 Z5
Z-13
G1 Z-20 F30
G0 Z5
Z-18
G1 Z-22.901 F30
G0 Z5
Z15
T6
M5
G28 G91 Z0
G90

(Drill4 - 4.2mm)
M00
T2 M6
S2000 M3
G54
G0 X0 Y30.5
Z15
Z5
Z2
G1 Z-5 F30
G0 Z5
Z-3
G1 Z-9 F30
G0 Z5
X-30.5 Y0
Z2
G1 Z-5 F30
G0 Z5
Z-3
G1 Z-9 F30
G0 Z5
X0 Y-30.5
Z2
G1 Z-5 F30
G0 Z5
Z-3
G1 Z-9 F30
G0 Z5
X30.5 Y0
Z2
G1 Z-5 F30
G0 Z5
Z-3
G1 Z-9 F30
G0 Z5
Z15
M5
G28 G91 Z0
G90

(Drill5 - 6mm end mill)
M00
T6 M6
S2000 M3
G54
G0 X-21.567 Y21.567
Z15
Z5
G1 Z-3.2 F30
G0 Z5
Y-21.567
G1 Z-3.2 F30
G0 Z5
X21.567
G1 Z-3.2 F30
G0 Z5
Y21.567
G1 Z-3.2 F30
G0 Z5
Z15

(Drill6 - 10mm)
M00
X0 Y0
Z15
Z5
Z2
G1 Z-2.5 F30
G0 Z5
Z-0.5
G1 Z-5 F30
G0 Z5
Z-3
G1 Z-7.5 F30
G0 Z5
Z-5.5
G1 Z-10 F30
G0 Z5
Z-8
G1 Z-12.5 F30
G0 Z5
Z-10.5
G1 Z-15 F30
G0 Z5
Z-13
G1 Z-17.5 F30
G0 Z5
Z-15.5
G1 Z-20 F30
G0 Z5
Z-18
G1 Z-22.5 F30
G0 Z5
Z-20.5
G1 Z-24.004 F30
G0 Z5
Z15
G28 G91 Z0
G90
G28 G91 X0 Y0
G90
M30
%
