%
(1001)
(T2  D=4.762 CR=0 TAPER=118deg - ZMIN=-1 - center drill)
(T3  D=3 CR=0 TAPER=118deg - ZMIN=-8.5 - drill)
(T4  D=2.5 CR=0 TAPER=118deg - ZMIN=-7.5 - drill)
(T6  D=6 CR=0 - ZMIN=-4.4 - flat end mill)
(T7  D=8 CR=0 TAPER=118deg - ZMIN=-10.5 - drill)
(T9  D=9.5 CR=0 TAPER=118deg - ZMIN=-37.854 - drill)
(T10  D=10 CR=0 - ZMIN=-35 - flat end mill)
G90 G94
G17
G21
T3
G28 G91 Z0
G90

(Drill1 - spot)
M9
T2 M6
S2000 M3
G54
G0 X0 Y30.5
Z15
Z5
G1 Z-1 F50
G0 Z5
X-21.567 Y21.567
G1 Z-1 F50
G0 Z5
X-30.5 Y0
G1 Z-1 F50
G0 Z5
X-21.567 Y-21.567
G1 Z-1 F50
G0 Z5
X0 Y-30.5
G1 Z-1 F50
G0 Z5
X21.567 Y-21.567
G1 Z-1 F50
G0 Z5
X30.5 Y0
G1 Z-1 F50
G0 Z5
X21.567 Y21.567
G1 Z-1 F50
G0 Z5
X0.051 Y21.06
G1 Z-1 F50
G0 Z5
X-11 Y10.06
G1 Z-1 F50
G0 Z5
X0 Y0
G1 Z-1 F50
G0 Z5
X11 Y10.06
G1 Z-1 F50
G0 Z5
X0
G1 Z-1 F50
G0 Z5
Z15
T4
M5
G28 G91 Z0
G90

(Drill2 - 3mm)
M00
T3 M6
S9700 M3
G54
G0 X0.051 Y21.06
Z15
Z5
G1 Z-8.5 F100
G0 Z5
X-11 Y10.06
G1 Z-8.5 F100
G0 Z5
X0 Y0
G1 Z-8.5 F100
G0 Z5
X11 Y10.06
G1 Z-3.9 F100
G0 Z5
X0
G1 Z-8.5 F100
G0 Z5
Z15
T6
M5
G28 G91 Z0
G90

(Drill3 - 2.5mm)
M00
T4 M6
S200 M3
G54
G0 X0 Y30.5
Z15
Z5
G1 Z-7.5 F100
G0 Z5
X-21.567 Y21.567
G1 Z-7.5 F100
G0 Z5
X-30.5 Y0
G1 Z-7.5 F100
G0 Z5
X-21.567 Y-21.567
G1 Z-7.5 F100
G0 Z5
X0 Y-30.5
G1 Z-7.5 F100
G0 Z5
X21.567 Y-21.567
G1 Z-7.5 F100
G0 Z5
X30.5 Y0
G1 Z-7.5 F100
G0 Z5
X21.567 Y21.567
G1 Z-7.5 F100
G0 Z5
Z15
T7
M5
G28 G91 Z0
G90

(Drill4 - 6mm end mill)
M00
T6 M6
S2000 M3
G54
G0 X0.051 Y21.06
Z15
Z5
G1 Z-3.9 F30
G4 P1.
G0 Z5
X-11 Y10.06
G1 Z-3.9 F30
G4 P1.
G0 Z5
X11
G1 Z-3.9 F30
G4 P1.
G0 Z5
Z15
T9
M5
G28 G91 Z0
G90

(Drill5 - 8mm)
M00
T7 M6
S2000 M3
G54
G0 X0 Y10.06
Z9
Z5
G1 Z-10.5 F50
G0 Z5
Z9
T10
M5
G28 G91 Z0
G90

(Drill6 - 9.5mm)
M00
T9 M6
S2000 M3
G54
G0 X0 Y0
Z9
Z5
Z2
G1 Z-5 F50
G0 Z5
Z-3
G1 Z-10 F50
G0 Z5
Z-8
G1 Z-15 F50
G0 Z5
Z-13
G1 Z-20 F50
G0 Z5
Z-18
G1 Z-25 F50
G0 Z5
Z-23
G1 Z-30 F50
G0 Z5
Z-28
G1 Z-35 F50
G0 Z5
Z-33
G1 Z-37.854 F50
G0 Z5
Z9
T6
M5
G28 G91 Z0
G90

(Drill7 - 10mm reamer)
M00
T10 M6
S2000 M3
G54
G0 X0 Y0
Z9
Z5
G1 Z-35 F30
G0 Z5
Z9
M5
G28 G91 Z0
G90

(2D Adaptive1 - 6mm end mill)
M00
T6 M6
S2000 M3
G54
M8
G0 X-3.135 Y-16.967
Z15
Z5
Z2.55
G2 X2.492 Y-17.877 Z2.237 I2.813 J-0.455 F50
X-3.135 Y-16.967 Z1.925 I-2.813 J0.455
X2.492 Y-17.877 Z1.612 I2.813 J-0.455
X-3.135 Y-16.967 Z1.299 I-2.813 J0.455
X2.492 Y-17.877 Z0.987 I2.813 J-0.455
X-3.135 Y-16.967 Z0.674 I-2.813 J0.455
X2.492 Y-17.877 Z0.361 I2.813 J-0.455
X-3.135 Y-16.967 Z0.049 I-2.813 J0.455
X2.492 Y-17.877 Z-0.264 I2.813 J-0.455
X-3.135 Y-16.967 Z-0.577 I-2.813 J0.455
X2.492 Y-17.877 Z-0.889 I2.813 J-0.455
X-3.135 Y-16.967 Z-1.202 I-2.813 J0.455
X2.492 Y-17.877 Z-1.515 I2.813 J-0.455
X-3.135 Y-16.967 Z-1.827 I-2.813 J0.455
X2.492 Y-17.877 Z-2.14 I2.813 J-0.455
X-3.135 Y-16.967 Z-2.453 I-2.813 J0.455
X2.492 Y-17.877 Z-2.765 I2.813 J-0.455
X-3.135 Y-16.967 Z-3.078 I-2.813 J0.455
X2.492 Y-17.877 Z-3.391 I2.813 J-0.455
X-3.135 Y-16.967 Z-3.703 I-2.813 J0.455
X2.529 Y-17.422 Z-4 I2.813 J-0.455
X-3.171 I-2.85
X2.529 I2.85
G1 X2.532 Y-17.658
X2.704 Y-18.586
X2.738 Y-18.699
X2.767 Y-18.846
X2.782 Y-18.995
X2.784 Y-19.145
X2.772 Y-19.301
X2.746 Y-19.466
X2.705 Y-19.64
X2.646 Y-19.82
X2.569 Y-20.004
X2.472 Y-20.192
X2.355 Y-20.38
X2.217 Y-20.566
X2.058 Y-20.749
X1.878 Y-20.924
X1.677 Y-21.091
X1.456 Y-21.246
X1.216 Y-21.388
X0.958 Y-21.513
X0.683 Y-21.62
X0.395 Y-21.706
X0.094 Y-21.77
X-0.217 Y-21.811
X-0.537 Y-21.827
X-0.861 Y-21.817
X-1.188 Y-21.781
X-1.515 Y-21.718
X-1.84 Y-21.627
X-2.16 Y-21.51
X-2.472 Y-21.366
X-2.774 Y-21.196
X-3.063 Y-21.002
X-3.337 Y-20.783
X-3.595 Y-20.542
X-3.833 Y-20.279
X-4.05 Y-19.997
X-4.245 Y-19.698
X-4.415 Y-19.382
X-4.56 Y-19.054
X-4.679 Y-18.713
X-4.77 Y-18.364
X-4.833 Y-18.008
X-4.867 Y-17.647
X-4.872 Y-17.284
X-4.848 Y-16.921
X-4.795 Y-16.562
X-4.713 Y-16.207
X-4.603 Y-15.859
X-4.465 Y-15.522
X-4.3 Y-15.196
X-4.11 Y-14.885
X-3.895 Y-14.589
X-3.657 Y-14.312
X-3.397 Y-14.054
X-3.118 Y-13.818
X-2.82 Y-13.606
X-2.506 Y-13.417
X-2.178 Y-13.255
X-1.838 Y-13.119
X-1.488 Y-13.011
X-1.131 Y-12.932
X-0.768 Y-12.881
X-0.402 Y-12.86
X-0.036 Y-12.868
X0.328 Y-12.905
X0.689 Y-12.972
X1.042 Y-13.067
X1.387 Y-13.191
X1.721 Y-13.341
X2.042 Y-13.518
X2.348 Y-13.721
X2.636 Y-13.947
X2.906 Y-14.195
X3.154 Y-14.465
X3.38 Y-14.753
X3.583 Y-15.059
X3.923 Y-15.675
X4.226 Y-16.348
X4.417 Y-16.88
X4.545 Y-17.358
X4.628 Y-17.803
X4.672 Y-18.235
X4.681 Y-18.652
X4.658 Y-19.057
X4.603 Y-19.452
X4.517 Y-19.839
X4.4 Y-20.216
X4.254 Y-20.583
X4.078 Y-20.939
X3.872 Y-21.282
X3.637 Y-21.61
X3.375 Y-21.921
X3.085 Y-22.214
X2.769 Y-22.485
X2.427 Y-22.733
X2.061 Y-22.957
X1.674 Y-23.153
X1.266 Y-23.32
X0.84 Y-23.455
X0.4 Y-23.556
X-0.053 Y-23.623
X-0.515 Y-23.654
X-0.982 Y-23.648
X-1.452 Y-23.603
X-1.922 Y-23.52
X-2.386 Y-23.399
X-2.843 Y-23.24
X-3.289 Y-23.043
X-3.721 Y-22.81
X-4.134 Y-22.541
X-4.527 Y-22.238
X-4.896 Y-21.903
X-5.239 Y-21.538
X-5.553 Y-21.145
X-5.835 Y-20.726
X-6.083 Y-20.284
X-6.296 Y-19.823
X-6.472 Y-19.344
X-6.609 Y-18.852
X-6.706 Y-18.349
X-6.763 Y-17.84
X-6.778 Y-17.326
X-6.752 Y-16.812
X-6.686 Y-16.301
X-6.578 Y-15.796
X-6.429 Y-15.302
X-6.242 Y-14.82
X-6.016 Y-14.354
X-5.753 Y-13.908
X-5.456 Y-13.484
X-5.125 Y-13.085
X-4.763 Y-12.714
X-4.372 Y-12.373
X-3.954 Y-12.065
X-3.514 Y-11.79
X-3.052 Y-11.552
X-2.573 Y-11.352
X-2.079 Y-11.19
X-1.574 Y-11.069
X-1.061 Y-10.989
X-0.542 Y-10.95
X-0.022 Y-10.953
X0.495 Y-10.998
X1.008 Y-11.084
X1.512 Y-11.211
X2.005 Y-11.378
X2.482 Y-11.584
X2.942 Y-11.828
X3.38 Y-12.108
X3.795 Y-12.422
X4.232 Y-12.812
X4.671 Y-13.273
X5.083 Y-13.78
X5.461 Y-14.331
X5.792 Y-14.908
X6.069 Y-15.496
X6.292 Y-16.089
X6.462 Y-16.683
X6.582 Y-17.276
X6.653 Y-17.866
X6.675 Y-18.453
X6.651 Y-19.032
X6.581 Y-19.603
X6.466 Y-20.163
X6.307 Y-20.709
X6.105 Y-21.241
X5.862 Y-21.754
X5.577 Y-22.247
X5.252 Y-22.718
X4.889 Y-23.163
X4.489 Y-23.58
X4.054 Y-23.966
X3.917 Y-24.069
X3.708 Y-24.199
X3.479 Y-24.291
X3.238 Y-24.341
X1.601 Y-24.533
X1.393 Y-24.549
X0.75 Y-24.552
X-0.75
X-1.393 Y-24.549
X-1.607 Y-24.532
X-3.429 Y-24.318
X-3.949 Y-24.231
X-4.283 Y-24.147
X-4.649 Y-24.022
X-5.023 Y-23.861
X-5.4 Y-23.66
X-5.793 Y-23.41
X-6.188 Y-23.11
X-6.569 Y-22.77
X-6.934 Y-22.387
X-7.283 Y-21.955
X-7.61 Y-21.478
X-7.907 Y-20.961
X-8.167 Y-20.407
X-8.387 Y-19.823
X-8.562 Y-19.213
X-8.688 Y-18.584
X-8.765 Y-17.94
X-8.79 Y-17.286
X-8.762 Y-16.628
X-8.681 Y-15.969
X-8.547 Y-15.315
X-8.36 Y-14.671
X-8.12 Y-14.042
X-7.83 Y-13.433
X-7.492 Y-12.847
X-7.106 Y-12.289
X-6.677 Y-11.763
X-6.206 Y-11.273
X-5.696 Y-10.821
X-5.152 Y-10.411
X-4.742 Y-10.152
X-4.52 Y-10.038
X-4.281 Y-9.965
X-4.032 Y-9.935
X-3.783 Y-9.951
X-2.25 Y-10.183
X-2.035 Y-10.215
X-1.393 Y-10.289
X-0.75 Y-10.292
X0.75
X1.393 Y-10.289
X1.821 Y-10.24
X2.173 Y-10.217
X2.461 Y-10.222
X2.789 Y-10.254
X3.131 Y-10.315
X3.506 Y-10.413
X3.909 Y-10.555
X4.32 Y-10.737
X4.77 Y-10.982
X5.22 Y-11.276
X5.672 Y-11.626
X6.134 Y-12.046
X6.587 Y-12.532
X7.015 Y-13.071
X7.406 Y-13.654
X7.756 Y-14.279
X8.059 Y-14.941
X8.312 Y-15.633
X8.509 Y-16.347
X8.648 Y-17.076
X8.729 Y-17.814
X8.749 Y-18.555
X8.711 Y-19.294
X8.613 Y-20.026
X8.458 Y-20.747
X8.245 Y-21.452
X7.975 Y-22.139
X7.652 Y-22.803
X7.534 Y-23.001
X7.377 Y-23.217
X7.181 Y-23.4
X6.953 Y-23.541
X6.703 Y-23.637
X6.565 Y-23.676
X4.392 Y-24.192
X4.178 Y-24.222
X3.75 Y-24.279
X3.535 Y-24.306
X3.238 Y-24.341
X3.187 Y-24.343 F1440
X2.452 Y-24.34
X-2.643 Y-24.323
X-3.382 Y-24.32 F50
X-3.429 Y-24.318
X-3.535 Y-24.306
X-3.75 Y-24.279
X-4.178 Y-24.222
X-4.392 Y-24.192
X-6.565 Y-23.676
X-7.178 Y-23.506
X-7.371 Y-23.439
X-7.629 Y-23.326
X-7.893 Y-23.184
X-8.181 Y-22.998
X-8.468 Y-22.779
X-8.778 Y-22.5
X-9.071 Y-22.189
X-9.374 Y-21.812
X-9.67 Y-21.376
X-9.937 Y-20.904
X-10.188 Y-20.365
X-10.41 Y-19.765
X-10.593 Y-19.116
X-10.726 Y-18.438
X-10.808 Y-17.729
X-10.833 Y-16.985
X-10.797 Y-16.218
X-10.697 Y-15.437
X-10.532 Y-14.653
X-10.301 Y-13.874
X-10.006 Y-13.107
X-9.647 Y-12.36
X-9.226 Y-11.64
X-8.746 Y-10.953
X-8.211 Y-10.303
X-7.665 Y-9.741
X-7.523 Y-9.615
X-7.29 Y-9.45
X-7.028 Y-9.335
X-6.749 Y-9.275
X-6.463 Y-9.274
X-6.183 Y-9.33
X-4.837 Y-9.749
X-4.178 Y-9.89
X-3.783 Y-9.951
G2 X-3.312 Y-10.688 I-0.111 J-0.59 F1440
G1 X-6.456 Y-23.07
X-6.479 Y-23.141
X-6.51 Y-23.209
G2 X-7.178 Y-23.506 I-0.527 J0.286 F50
G1 X-7.33 Y-23.461
X-9.535 Y-22.656
X-9.653 Y-22.604
X-9.963 Y-22.461
X-10.253 Y-22.309
X-10.484 Y-22.164
X-10.723 Y-21.985
X-10.97 Y-21.767
X-11.226 Y-21.501
X-11.483 Y-21.188
X-11.735 Y-20.825
X-11.987 Y-20.389
X-12.21 Y-19.923
X-12.421 Y-19.371
X-12.604 Y-18.749
X-12.739 Y-18.098
X-12.829 Y-17.373
X-12.864 Y-16.584
X-12.833 Y-15.748
X-12.732 Y-14.883
X-12.557 Y-14.009
X-12.307 Y-13.131
X-11.977 Y-12.249
X-11.577 Y-11.394
X-11.111 Y-10.574
X-10.607 Y-9.827
X-10.197 Y-9.314
X-9.845 Y-8.939
X-9.715 Y-8.822
X-9.493 Y-8.657
X-9.242 Y-8.54
X-8.974 Y-8.474
X-8.697 Y-8.462
X-8.424 Y-8.504
X-8.164 Y-8.6
X-8.004 Y-8.678
X-7.82 Y-8.766
X-7.606 Y-8.866
X-6.963 Y-9.087
X-6.905 Y-9.106
X-6.183 Y-9.33
G2 X-5.803 Y-10.058 I-0.198 J-0.566 F1440
G1 X-9.153 Y-22.069
X-9.178 Y-22.142
X-9.213 Y-22.212
X-9.257 Y-22.276
G2 X-9.963 Y-22.461 I-0.474 J0.368 F50
G1 X-10.177 Y-22.363
X-10.392 Y-22.257
X-11.677 Y-21.609
X-12.32 Y-21.273
X-12.534 Y-21.146
X-12.92 Y-20.862
X-13.126 Y-20.683
X-13.354 Y-20.451
X-13.569 Y-20.194
X-13.801 Y-19.866
X-14.012 Y-19.511
X-14.23 Y-19.066
X-14.416 Y-18.592
X-14.588 Y-18.023
X-14.727 Y-17.384
X-14.819 Y-16.702
X-14.86 Y-15.924
X-14.837 Y-15.071
X-14.742 Y-14.185
X-14.569 Y-13.275
X-14.319 Y-12.365
X-14.001 Y-11.477
X-13.619 Y-10.614
X-13.178 Y-9.779
X-12.742 Y-9.09
X-12.368 Y-8.591
X-12.036 Y-8.216
X-11.731 Y-7.922
X-11.604 Y-7.819
X-11.329 Y-7.643
X-11.021 Y-7.535
X-10.696 Y-7.502
X-10.373 Y-7.545
X-10.068 Y-7.662
X-9.749 Y-7.829
X-9.535 Y-7.934
X-8.164 Y-8.6
G2 X-7.875 Y-9.319 I-0.281 J-0.53 F1440
G1 X-11.675 Y-20.808
G2 X-11.812 Y-21.035 I-0.57 J0.188
X-12.534 Y-21.146 I-0.433 J0.415 F50
G1 X-14.677 Y-19.73
X-14.83 Y-19.605
X-15.088 Y-19.391
X-15.311 Y-19.185
X-15.514 Y-18.966
X-15.704 Y-18.724
X-15.905 Y-18.42
X-16.096 Y-18.076
X-16.282 Y-17.665
X-16.448 Y-17.2
X-16.598 Y-16.649
X-16.707 Y-16.059
X-16.78 Y-15.356
X-16.798 Y-14.602
X-16.751 Y-13.788
X-16.626 Y-12.884
X-16.422 Y-11.963
X-16.149 Y-11.059
X-15.814 Y-10.177
X-15.416 Y-9.321
X-14.984 Y-8.556
X-14.579 Y-7.956
X-14.207 Y-7.492
X-13.893 Y-7.157
X-13.562 Y-6.858
X-13.269 Y-6.633
X-13.216 Y-6.599
X-12.973 Y-6.473
X-12.709 Y-6.397
X-12.436 Y-6.374
X-12.163 Y-6.404
X-11.902 Y-6.488
X-11.661 Y-6.62
X-10.606 Y-7.346
X-10.392 Y-7.491
X-10.068 Y-7.662
G2 X-9.809 Y-8.409 I-0.297 J-0.522 F1440
G1 X-14.164 Y-19.142
G2 X-14.357 Y-19.394 I-0.556 J0.226
X-15.088 Y-19.391 I-0.363 J0.478 F50
G1 X-15.345 Y-19.176
X-16.616 Y-18.105
X-16.819 Y-17.93
X-17.248 Y-17.5
X-17.462 Y-17.272
X-17.584 Y-17.127
X-17.765 Y-16.877
X-17.933 Y-16.598
X-18.101 Y-16.26
X-18.258 Y-15.871
X-18.397 Y-15.425
X-18.513 Y-14.907
X-18.597 Y-14.318
X-18.637 Y-13.666
X-18.622 Y-12.906
X-18.538 Y-12.069
X-18.378 Y-11.19
X-18.135 Y-10.278
X-17.821 Y-9.388
X-17.441 Y-8.524
X-17.026 Y-7.754
X-16.605 Y-7.102
X-16.183 Y-6.552
X-15.81 Y-6.139
X-15.479 Y-5.827
X-15.148 Y-5.561
X-14.831 Y-5.346
X-14.786 Y-5.321
X-14.523 Y-5.206
X-14.242 Y-5.147
X-13.955
X-13.674 Y-5.205
X-13.411 Y-5.319
X-13.177 Y-5.484
X-12.954 Y-5.678
X-12.704 Y-5.892
X-12.534 Y-6.019
X-11.661 Y-6.62
G2 X-11.485 Y-7.377 I-0.357 J-0.482 F1440
G1 X-16.506 Y-17.121
G2 X-16.738 Y-17.365 I-0.533 J0.275
X-17.462 Y-17.272 I-0.302 J0.519 F50
G1 X-18.533 Y-16.13
X-18.683 Y-15.962
X-18.962 Y-15.645
X-19.049 Y-15.534
X-19.524 Y-14.891
X-19.64 Y-14.718
X-19.787 Y-14.452
X-19.935 Y-14.127
X-20.061 Y-13.778
X-20.18 Y-13.338
X-20.266 Y-12.878
X-20.326 Y-12.306
X-20.341 Y-11.714
X-20.302 Y-11.014
X-20.195 Y-10.233
X-20.02 Y-9.441
X-19.764 Y-8.605
X-19.435 Y-7.772
X-19.043 Y-6.976
X-18.622 Y-6.271
X-18.192 Y-5.667
X-17.754 Y-5.145
X-17.369 Y-4.755
X-17.028 Y-4.461
X-16.68 Y-4.207
X-16.366 Y-4.014
X-16.19 Y-3.924
X-15.923 Y-3.822
X-15.641 Y-3.775
X-15.356 Y-3.787
X-15.079 Y-3.856
X-14.822 Y-3.98
X-14.595 Y-4.154
X-13.177 Y-5.484
G2 X-13.08 Y-6.244 I-0.41 J-0.438 F1440
G1 X-18.549 Y-14.84
G2 X-18.816 Y-15.068 I-0.506 J0.322
X-19.524 Y-14.891 I-0.239 J0.55 F50
G1 X-20.317 Y-13.82
X-20.462 Y-13.621
X-20.745 Y-13.177
X-20.89 Y-12.927
X-21.238 Y-12.32
X-21.425 Y-11.953
X-21.54 Y-11.671
X-21.649 Y-11.33
X-21.734 Y-10.968
X-21.801 Y-10.518
X-21.833 Y-10.053
X-21.826 Y-9.485
X-21.772 Y-8.903
X-21.657 Y-8.239
X-21.471 Y-7.519
X-21.219 Y-6.793
X-20.902 Y-6.072
X-20.525 Y-5.371
X-20.117 Y-4.74
X-19.685 Y-4.178
X-19.237 Y-3.682
X-18.823 Y-3.292
X-18.454 Y-2.996
X-18.089 Y-2.749
X-17.763 Y-2.565
X-17.422 Y-2.407
X-17.343 Y-2.378
X-17.059 Y-2.306
X-16.766 Y-2.294
X-16.477 Y-2.344
X-16.205 Y-2.453
X-15.962 Y-2.615
X-15.758 Y-2.825
X-15.32 Y-3.382
X-15.197 Y-3.535
X-15.005 Y-3.75
X-14.891 Y-3.874
X-14.595 Y-4.154
G2 X-14.546 Y-4.941 I-0.427 J-0.422 F1440
G1 X-20.252 Y-12.369
G2 X-20.555 Y-12.578 I-0.476 J0.366
X-21.238 Y-12.32 I-0.173 J0.574 F50
G1 X-21.974 Y-11.034
X-22.077 Y-10.82
X-22.717 Y-9.32
X-22.85 Y-8.96
X-22.932 Y-8.667
X-22.996 Y-8.34
X-23.038 Y-7.971
X-23.051 Y-7.548
X-23.029 Y-7.09
X-22.963 Y-6.581
X-22.843 Y-6.015
X-22.674 Y-5.447
X-22.439 Y-4.841
X-22.139 Y-4.22
X-21.785 Y-3.616
X-21.392 Y-3.055
X-20.966 Y-2.54
X-20.521 Y-2.083
X-20.091 Y-1.706
X-19.687 Y-1.406
X-19.335 Y-1.186
X-18.972 Y-0.998
X-18.648 Y-0.862
X-18.484 Y-0.808
X-18.195 Y-0.746
X-17.899
X-17.61 Y-0.808
X-17.34 Y-0.93
X-17.102 Y-1.105
X-16.906 Y-1.327
X-16.707 Y-1.607
X-16.605 Y-1.749
X-15.758 Y-2.825
G2 X-15.819 Y-3.606 I-0.484 J-0.354 F1440
G1 X-21.751 Y-9.492
G2 X-22.069 Y-9.656 I-0.423 J0.426
X-22.717 Y-9.32 I-0.105 J0.591 F50
G1 X-22.9 Y-8.892
X-22.987 Y-8.678
X-23.228 Y-8.035
X-23.292 Y-7.82
X-23.797 Y-6.106
X-23.856 Y-5.861
X-23.9 Y-5.579
X-23.924 Y-5.276
X-23.922 Y-4.917
X-23.89 Y-4.546
X-23.819 Y-4.12
X-23.708 Y-3.675
X-23.548 Y-3.202
X-23.33 Y-2.695
X-23.06 Y-2.184
X-22.742 Y-1.685
X-22.38 Y-1.205
X-21.984 Y-0.76
X-21.563 Y-0.358
X-21.154 Y-0.026
X-20.749 Y0.253
X-20.397 Y0.455
X-20.035 Y0.627
X-19.711 Y0.749
X-19.372 Y0.847
X-19.291 Y0.863
X-19 Y0.891
X-18.71 Y0.858
X-18.433 Y0.766
X-18.181 Y0.617
X-17.965 Y0.42
X-17.795 Y0.182
X-17.144 Y-0.964
X-17.034 Y-1.148
X-16.906 Y-1.327
G2 X-17.053 Y-2.142 I-0.501 J-0.33 F1440
G1 X-22.873 Y-6.401
G2 X-23.192 Y-6.516 I-0.354 J0.484
X-23.797 Y-6.106 I-0.036 J0.599 F50
G1 X-23.86 Y-5.892
X-23.89 Y-5.77
X-24.004 Y-5.249
X-24.047 Y-5.035
X-24.378 Y-3.107
X-24.417 Y-2.743
X-24.424 Y-2.483
X-24.408 Y-2.189
X-24.366 Y-1.878
X-24.29 Y-1.533
X-24.178 Y-1.165
X-24.028 Y-0.785
X-23.83 Y-0.38
X-23.587 Y0.028
X-23.306 Y0.425
X-22.987 Y0.806
X-22.631 Y1.168
X-22.248 Y1.499
X-21.856 Y1.786
X-21.482 Y2.017
X-21.136 Y2.194
X-20.787 Y2.338
X-20.467 Y2.441
X-20.139 Y2.518
X-20.084 Y2.526
X-19.773 Y2.539
X-19.468 Y2.482
X-19.183 Y2.36
X-18.931 Y2.178
X-18.726 Y1.945
X-18.577 Y1.672
X-18.551 Y1.607
X-18.319 Y1.127
X-18.239 Y0.964
X-17.795 Y0.182
G2 X-18.046 Y-0.626 I-0.532 J-0.278 F1440
G1 X-23.51 Y-3.515
G2 X-23.825 Y-3.584 I-0.28 J0.53
X-24.378 Y-3.107 I0.034 J0.599 F50
G1 X-24.412 Y-2.893
X-24.465 Y-2.25
X-24.479 Y-2.035
X-24.581 Y-0.107
X-24.564 Y0.261
X-24.533 Y0.504
X-24.477 Y0.771
X-24.395 Y1.051
X-24.276 Y1.357
X-24.13 Y1.662
X-23.944 Y1.981
X-23.72 Y2.303
X-23.462 Y2.615
X-23.173 Y2.913
X-22.855 Y3.193
X-22.518 Y3.444
X-22.193 Y3.648
X-21.867 Y3.818
X-21.562 Y3.947
X-21.242 Y4.053
X-20.953 Y4.123
X-20.642 Y4.173
X-20.613 Y4.175
X-20.314 Y4.166
X-20.024 Y4.094
X-19.756 Y3.963
X-19.522 Y3.777
X-19.332 Y3.546
X-19.196 Y3.279
X-18.638 Y1.821
X-18.577 Y1.672
G2 X-18.961 Y0.892 I-0.563 J-0.207 F1440
G1 X-23.804 Y-0.627
G2 X-24.087 Y-0.645 I-0.18 J0.573
X-24.581 Y-0.107 I0.104 J0.591 F50
G1 X-24.582 Y0.107
X-24.554 Y0.75
X-24.445 Y2.464
X-24.412 Y2.758
X-24.37 Y2.968
X-24.31 Y3.184
X-24.224 Y3.416
X-24.11 Y3.66
X-23.974 Y3.902
X-23.806 Y4.15
X-23.606 Y4.399
X-23.38 Y4.638
X-23.13 Y4.864
X-22.855 Y5.075
X-22.588 Y5.247
X-22.301 Y5.401
X-22.036 Y5.517
X-21.746 Y5.617
X-21.479 Y5.686
X-21.199 Y5.735
X-21.144 Y5.74
X-20.855 Y5.736
X-20.573 Y5.673
X-20.31 Y5.554
X-20.077 Y5.384
X-19.884 Y5.169
X-19.739 Y4.919
X-19.649 Y4.645
X-19.605 Y4.444
X-19.589 Y4.392
X-19.391 Y3.789
X-19.294 Y3.535
X-19.196 Y3.279
G2 X-19.671 Y2.492 I-0.568 J-0.195 F1440
G1 X-23.753 Y1.854
G2 X-24.017 Y1.872 I-0.093 J0.593
X-24.445 Y2.464 I0.172 J0.575 F50
G1 X-24.418 Y2.893
X-24.384 Y3.107
X-24.311 Y3.535
X-24.273 Y3.75
X-24.078 Y4.821
X-24.018 Y5.078
X-23.963 Y5.25
X-23.886 Y5.436
X-23.791 Y5.623
X-23.672 Y5.816
X-23.528 Y6.012
X-23.363 Y6.203
X-23.177 Y6.387
X-22.986 Y6.546
X-22.768 Y6.701
X-22.559 Y6.826
X-22.33 Y6.938
X-22.1 Y7.029
X-21.874 Y7.098
X-21.627 Y7.152
X-21.519 Y7.167
X-21.221 Y7.176
X-20.928 Y7.121
X-20.654 Y7.006
X-20.41 Y6.835
X-20.207 Y6.617
X-20.056 Y6.361
X-19.962 Y6.078
X-19.649 Y4.645
G2 X-20.275 Y3.938 I-0.59 J-0.108 F1440
G1 X-23.521 Y4.135
X-23.59 Y4.143
X-23.657 Y4.159
X-23.722 Y4.183
G2 X-24.078 Y4.821 I0.238 J0.551 F50
G1 X-23.999 Y5.249
X-23.89 Y5.831
X-23.873 Y5.892
X-23.575 Y6.867
X-23.522 Y7.013
X-23.455 Y7.161
X-23.371 Y7.311
X-23.271 Y7.462
X-23.158 Y7.605
X-23.025 Y7.747
X-22.878 Y7.882
X-22.73 Y7.997
X-22.558 Y8.11
X-22.381 Y8.207
X-22.205 Y8.286
X-22.003 Y8.357
X-21.808 Y8.409
X-21.485 Y8.429
X-21.166 Y8.373
X-20.869 Y8.244
X-20.611 Y8.049
X-20.405 Y7.799
X-20.264 Y7.509
X-20.194 Y7.193
X-20.192 Y7.178
X-20.106 Y6.749
X-20.061 Y6.535
X-19.962 Y6.078
G2 X-20.726 Y5.397 I-0.59 J-0.107 F1440
G1 X-23.169 Y6.137
X-23.234 Y6.161
X-23.296 Y6.192
G2 X-23.595 Y6.711 I0.3 J0.52 F50
G1 Y6.712
X-23.59 Y6.79
X-23.575 Y6.867
X-23.217 Y8.035
X-23.103 Y8.367
X-23.047 Y8.506
X-22.977 Y8.639
X-22.893 Y8.763
X-22.799 Y8.88
X-22.695 Y8.988
X-22.579 Y9.088
X-22.454 Y9.18
X-22.326 Y9.259
X-22.186 Y9.331
X-22.027 Y9.396
X-21.982 Y9.411
X-21.691 Y9.469
X-21.395 Y9.46
X-21.108 Y9.384
X-20.846 Y9.246
X-20.622 Y9.052
X-20.447 Y8.813
X-20.33 Y8.541
X-20.277 Y8.249
G2 X-20.863 Y7.632 I-0.6 J-0.017 F1440
G1 X-22.514 Y7.592
G2 X-22.847 Y7.683 I-0.014 J0.6
X-23.103 Y8.367 I0.318 J0.509 F50
G1 X-22.996 Y8.678
X-22.911 Y8.892
X-22.628 Y9.535
X-22.561 Y9.669
X-22.48 Y9.795
X-22.384 Y9.91
X-22.275 Y10.014
X-22.156 Y10.105
X-22.029 Y10.183
X-21.756 Y10.276
X-21.469 Y10.3
X-21.185 Y10.254
X-20.921 Y10.14
X-20.692 Y9.966
X-20.512 Y9.742
X-20.392 Y9.48
X-20.338 Y9.197
G2 X-21.008 Y8.584 I-0.6 J-0.017 F1440
G1 X-22.141 Y8.717
G2 X-22.43 Y8.832 I0.07 J0.596
X-22.628 Y9.535 I0.359 J0.481 F50
G1 X-22.252 Y10.392
X-22.185 Y10.526
X-22.096 Y10.647
X-21.991 Y10.754
X-21.986 Y10.759
X-21.745 Y10.895
X-21.476 Y10.96
X-21.2 Y10.948
X-20.938 Y10.86
X-20.71 Y10.704
X-20.534 Y10.491
X-20.424 Y10.237
X-20.387 Y9.963
G2 X-20.478 Y9.573 I-0.786 J-0.023 F1440
X-22.235 Y9.627 I-0.865 J0.457
X-22.252 Y10.392 I0.892 J0.402 F50
G1 X-21.97 Y11.034
X-21.903 Y11.169
X-21.814 Y11.29
X-21.604 Y11.435
X-21.361 Y11.511
X-21.106 Y11.512
X-20.862 Y11.438
X-20.651 Y11.295
X-20.492 Y11.097
X-20.398 Y10.86
X-20.378 Y10.606
G2 X-20.449 Y10.343 I-0.651 J0.035 F1440
X-21.901 Y10.281 I-0.744 J0.382
X-21.97 Y11.034 I0.709 J0.444 F50
G1 X-21.962 Y11.053
X-21.864 Y11.249
X-21.615 Y11.677
X-21.533 Y11.803
X-21.422 Y11.904
X-21.213 Y11.991
X-20.988 Y12.009
X-20.767 Y11.956
X-20.575 Y11.837
X-20.428 Y11.665
X-20.343 Y11.455
X-20.327 Y11.229
G2 X-20.412 Y10.986 I-0.598 J0.073 F1440
X-21.559 Y10.935 I-0.591 J0.364
X-21.615 Y11.677 I0.556 J0.415 F50
G1 X-21.426 Y11.999
X-21.391 Y12.052
X-21.346 Y12.106
X-21.319 Y12.133
X-21.265 Y12.177
X-21.212 Y12.213
X-21.158 Y12.24
X-21.105 Y12.262
X-21.051 Y12.277
X-20.997 Y12.288
X-20.944 Y12.293
X-20.89 Y12.294
X-20.837 Y12.29
X-20.783 Y12.281
X-20.73 Y12.267
X-20.676 Y12.247
X-20.57 Y12.19
X-20.518 Y12.153
X-20.462 Y12.103
X-20.416 Y12.05
X-20.379 Y11.997
X-20.35 Y11.944
X-20.327 Y11.891
X-20.31 Y11.838
X-20.299 Y11.784
X-20.292 Y11.731
X-20.29 Y11.677
X-20.307 Y11.463
X-20.362 Y10.82
X-20.378 Y10.606
X-20.386 Y10.177
X-20.387 Y9.963
X-20.264 Y8.035
X-20.248 Y7.804
X-20.214 Y7.392
X-20.194 Y7.193
G2 X-20.6 Y6.586 I-0.599 J-0.039 F1440
G1 X-20.689 Y6.555 Z-3.993
X-20.776 Y6.526 Z-3.971
X-20.858 Y6.498 Z-3.935
X-20.934 Y6.472 Z-3.885
X-21.002 Y6.449 Z-3.824
X-21.06 Y6.43 Z-3.753
X-21.106 Y6.414 Z-3.672
X-21.141 Y6.403 Z-3.585
X-21.161 Y6.395 Z-3.494
X-21.168 Y6.393 Z-3.4
G0 Z5
X0.62 Y-10.909
Z-2.8
G1 Z-3.4 F50
X0.626 Y-10.905 Z-3.494
X0.644 Y-10.891 Z-3.585
X0.672 Y-10.869 Z-3.672
X0.712 Y-10.84 Z-3.753
X0.76 Y-10.803 Z-3.824
X0.817 Y-10.759 Z-3.885
X0.881 Y-10.711 Z-3.935
X0.95 Y-10.658 Z-3.971
X1.023 Y-10.602 Z-3.993
X1.098 Y-10.546 Z-4
G2 X1.821 Y-10.24 I0.959 J-1.259
G1 X2.035 Y-10.215
X2.464 Y-10.151
X3.964 Y-9.923
X4.178 Y-9.89
X4.356 Y-9.862
X4.582 Y-9.846
X4.82 Y-9.847
X5.092 Y-9.871
X5.388 Y-9.921
X5.709 Y-10.003
X6.059 Y-10.122
X6.432 Y-10.283
X6.822 Y-10.491
X7.246 Y-10.762
X7.657 Y-11.075
X8.092 Y-11.464
X8.534 Y-11.929
X8.948 Y-12.441
X9.346 Y-13.023
X9.72 Y-13.678
X10.057 Y-14.395
X10.346 Y-15.165
X10.577 Y-15.976
X10.747 Y-16.819
X10.849 Y-17.684
X10.882 Y-18.564
X10.843 Y-19.45
X10.734 Y-20.336
X10.552 Y-21.215
X10.402 Y-21.729
X10.285 Y-22.011
X10.109 Y-22.262
X9.883 Y-22.468
X9.618 Y-22.62
X9.535 Y-22.656
X7.33 Y-23.461
X7.178 Y-23.506
X6.703 Y-23.637
G2 X5.973 Y-23.159 I-0.14 J0.583 F1440
G1 X3.733 Y-10.577
X3.726 Y-10.52
X3.724 Y-10.462
G2 X4.178 Y-9.89 I0.6 J-0.01 F50
G1 X4.837 Y-9.749
X5.892 Y-9.421
X6.122 Y-9.362
X6.309 Y-9.33
X6.53 Y-9.309
X6.767 Y-9.307
X7.034 Y-9.326
X7.325 Y-9.37
X7.641 Y-9.444
X7.984 Y-9.554
X8.352 Y-9.706
X8.733 Y-9.9
X9.151 Y-10.158
X9.557 Y-10.456
X9.995 Y-10.834
X10.441 Y-11.287
X10.863 Y-11.791
X11.289 Y-12.391
X11.699 Y-13.08
X12.073 Y-13.843
X12.393 Y-14.652
X12.659 Y-15.525
X12.86 Y-16.447
X12.988 Y-17.383
X13.045 Y-18.325
X13.032 Y-19.268
X12.955 Y-20.157
X12.925 Y-20.331
X12.835 Y-20.641
X12.677 Y-20.922
X12.459 Y-21.159
X12.192 Y-21.34
X11.677 Y-21.609
X10.392 Y-22.257
X10.177 Y-22.363
X9.653 Y-22.604
X9.618 Y-22.62
G2 X8.819 Y-22.22 I-0.221 J0.558 F1440
G1 X5.511 Y-10.146
X5.499 Y-10.089
X5.492 Y-10.032
G2 X5.892 Y-9.421 I0.598 J0.045 F50
G1 X6.905 Y-9.106
X6.963 Y-9.087
X7.606 Y-8.866
X7.642 Y-8.849
X7.781 Y-8.792
X7.958 Y-8.744
X8.151 Y-8.708
X8.372 Y-8.684
X8.614 Y-8.678
X8.883 Y-8.693
X9.179 Y-8.733
X9.498 Y-8.803
X9.846 Y-8.909
X10.218 Y-9.056
X10.605 Y-9.247
X11.032 Y-9.501
X11.448 Y-9.796
X11.905 Y-10.18
X12.362 Y-10.63
X12.811 Y-11.15
X13.267 Y-11.772
X13.71 Y-12.492
X14.105 Y-13.268
X14.459 Y-14.126
X14.747 Y-15.024
X14.967 Y-15.942
X15.121 Y-16.873
X15.212 Y-17.813
X15.236 Y-18.607
X15.232 Y-18.682
X15.187 Y-18.97
X15.083 Y-19.243
X14.925 Y-19.488
X14.719 Y-19.696
X14.677 Y-19.73
X12.534 Y-21.146
X12.32 Y-21.273
X12.192 Y-21.34
G2 X11.368 Y-20.998 I-0.259 J0.541 F1440
G1 X7.349 Y-9.583
X7.329 Y-9.509
G2 X7.642 Y-8.849 I0.587 J0.126 F50
G1 X7.82 Y-8.766
X8.035 Y-8.663
X9.106 Y-8.143
X9.324 Y-8.05
X9.495 Y-7.993
X9.691 Y-7.945
X9.914 Y-7.908
X10.158 Y-7.889
X10.431
X10.726 Y-7.912
X11.055 Y-7.965
X11.405 Y-8.051
X11.782 Y-8.177
X12.192 Y-8.351
X12.607 Y-8.568
X13.072 Y-8.861
X13.524 Y-9.199
X14.009 Y-9.627
X14.514 Y-10.15
X14.987 Y-10.726
X15.459 Y-11.406
X15.917 Y-12.194
X16.325 Y-13.045
X16.666 Y-13.925
X16.944 Y-14.827
X17.16 Y-15.746
X17.299 Y-16.583
X17.312 Y-16.733
X17.305 Y-17.037
X17.232 Y-17.332
X17.098 Y-17.605
X16.908 Y-17.842
X16.819 Y-17.93
X16.605 Y-18.114
X15.32 Y-19.198
X14.83 Y-19.605
X14.719 Y-19.696
G2 X13.813 Y-19.474 I-0.363 J0.478 F1440
G1 X8.844 Y-8.929
X8.82 Y-8.869
X8.802 Y-8.807
G2 X9.106 Y-8.143 I0.585 J0.134 F50
G1 X9.535 Y-7.934
X9.765 Y-7.82
X10.177 Y-7.604
X10.392 Y-7.491
X10.538 Y-7.392
X10.686 Y-7.303
X10.833 Y-7.23
X11.001 Y-7.162
X11.192 Y-7.103
X11.409 Y-7.054
X11.649 Y-7.02
X11.924 Y-7.004
X12.217 Y-7.009
X12.545 Y-7.043
X12.895 Y-7.107
X13.278 Y-7.209
X13.692 Y-7.356
X14.126 Y-7.55
X14.604 Y-7.813
X15.072 Y-8.121
X15.578 Y-8.517
X16.111 Y-9.006
X16.616 Y-9.551
X17.138 Y-10.213
X17.651 Y-10.986
X18.109 Y-11.812
X18.504 Y-12.669
X18.84 Y-13.551
X19.087 Y-14.36
X19.136 Y-14.582
X19.168 Y-14.841
X19.151 Y-15.102
X19.086 Y-15.356
X18.975 Y-15.593
X18.821 Y-15.805
X18.683 Y-15.962
X18.533 Y-16.13
X17.248 Y-17.5
X16.908 Y-17.842
G2 X15.981 Y-17.707 I-0.409 J0.439 F1440
G1 X10.373 Y-8.182
X10.35 Y-8.138
X10.33 Y-8.092
G2 X10.538 Y-7.392 I0.56 J0.214 F50
G1 X10.606 Y-7.346
X12.004 Y-6.384
X12.132 Y-6.305
X12.3 Y-6.222
X12.48 Y-6.149
X12.699 Y-6.081
X12.929 Y-6.03
X13.204 Y-5.991
X13.491 Y-5.973
X13.826 Y-5.98
X14.169 Y-6.014
X14.566 Y-6.087
X14.969 Y-6.194
X15.425 Y-6.356
X15.9 Y-6.569
X16.392 Y-6.839
X16.935 Y-7.197
X17.468 Y-7.612
X18.025 Y-8.124
X18.603 Y-8.747
X19.177 Y-9.475
X19.699 Y-10.261
X20.161 Y-11.084
X20.543 Y-11.893
X20.675 Y-12.244
X20.753 Y-12.558
X20.757 Y-12.882
X20.687 Y-13.198
X20.545 Y-13.49
X20.462 Y-13.621
X20.317 Y-13.82
X19.049 Y-15.534
X18.962 Y-15.645
X18.821 Y-15.805
G2 X17.894 Y-15.74 I-0.437 J0.411 F1440
G1 X11.871 Y-7.212
X11.834 Y-7.152
X11.803 Y-7.087
G2 X12.004 Y-6.384 I0.558 J0.22 F50
G1 X12.534 Y-6.019
X12.704 Y-5.892
X12.963 Y-5.671
X13.177 Y-5.484
X13.291 Y-5.387
X13.419 Y-5.295
X13.574 Y-5.202
X13.745 Y-5.117
X13.953 Y-5.033
X14.175 Y-4.964
X14.441 Y-4.905
X14.72 Y-4.865
X15.047 Y-4.845
X15.387 Y-4.852
X15.781 Y-4.892
X16.19 Y-4.967
X16.64 Y-5.087
X17.132 Y-5.262
X17.629 Y-5.485
X18.19 Y-5.794
X18.755 Y-6.166
X19.343 Y-6.625
X19.962 Y-7.194
X20.586 Y-7.868
X21.17 Y-8.609
X21.648 Y-9.325
X21.907 Y-9.787
X22.02 Y-10.051
X22.078 Y-10.333
X22.076 Y-10.621
X22.016 Y-10.902
X21.899 Y-11.165
X20.87 Y-12.963
X20.745 Y-13.177
X20.545 Y-13.49
G2 X19.603 Y-13.549 I-0.494 J0.34 F1440
G1 X13.154 Y-6.306
X13.117 Y-6.259
X13.084 Y-6.208
G2 X13.177 Y-5.484 I0.519 J0.302 F50
G1 X14.463 Y-4.278
X14.577 Y-4.181
X14.726 Y-4.076
X14.894 Y-3.977
X15.096 Y-3.878
X15.317 Y-3.792
X15.578 Y-3.714
X15.858 Y-3.654
X16.181 Y-3.611
X16.527 Y-3.594
X16.918 Y-3.605
X17.342 Y-3.652
X17.795 Y-3.739
X18.307 Y-3.881
X18.817 Y-4.068
X19.393 Y-4.333
X20.002 Y-4.675
X20.612 Y-5.085
X21.265 Y-5.605
X21.916 Y-6.215
X22.47 Y-6.824
X22.855 Y-7.322
X22.875 Y-7.353
X22.996 Y-7.585
X23.073 Y-7.836
X23.101 Y-8.096
X23.081 Y-8.357
X23.012 Y-8.609
X22.987 Y-8.678
X22.9 Y-8.892
X22.077 Y-10.82
X21.974 Y-11.034
X21.899 Y-11.165
G2 X20.977 Y-11.285 I-0.51 J0.316 F1440
G1 X14.476 Y-5.137
X14.418 Y-5.073
X14.37 Y-5.002
G2 X14.463 Y-4.278 I0.519 J0.302 F50
G1 X14.891 Y-3.874
X15.005 Y-3.75
X15.197 Y-3.535
X15.32 Y-3.382
X15.459 Y-3.205
X15.558 Y-3.092
X15.673 Y-2.981
X15.816 Y-2.865
X15.977 Y-2.754
X16.171 Y-2.642
X16.385 Y-2.541
X16.642 Y-2.444
X16.917 Y-2.364
X17.237 Y-2.299
X17.581 Y-2.257
X17.972 Y-2.241
X18.399 Y-2.258
X18.861 Y-2.313
X19.382 Y-2.419
X19.906 Y-2.57
X20.499 Y-2.794
X21.132 Y-3.093
X21.763 Y-3.455
X22.419 Y-3.906
X23 Y-4.378
X23.417 Y-4.777
X23.479 Y-4.847
X23.646 Y-5.076
X23.762 Y-5.335
X23.824 Y-5.612
X23.829 Y-5.895
X23.777 Y-6.174
X23.247 Y-7.971
X23.228 Y-8.035
X23.012 Y-8.609
G2 X22.101 Y-8.861 I-0.554 J0.23 F1440
G1 X15.586 Y-4.042
X15.528 Y-3.992
X15.476 Y-3.935
G2 X15.459 Y-3.205 I0.468 J0.376 F50
G1 X16.548 Y-1.821
X16.646 Y-1.708
X16.782 Y-1.58
X16.934 Y-1.458
X17.123 Y-1.33
X17.328 Y-1.214
X17.58 Y-1.097
X17.848 Y-0.998
X18.167 Y-0.908
X18.505 Y-0.841
X18.899 Y-0.796
X19.322 Y-0.782
X19.792 Y-0.804
X20.318 Y-0.871
X20.852 Y-0.984
X21.454 Y-1.162
X22.091 Y-1.408
X22.716 Y-1.709
X23.241 Y-2.015
X23.675 Y-2.318
X23.783 Y-2.407
X23.989 Y-2.617
X24.146 Y-2.865
X24.249 Y-3.14
X24.291 Y-3.431
X24.272 Y-3.724
X24.047 Y-5.035
X24.004 Y-5.249
X23.89 Y-5.77
X23.86 Y-5.892
X23.777 Y-6.174
G2 X22.893 Y-6.495 I-0.569 J0.19 F1440
G1 X16.717 Y-2.686
X16.661 Y-2.647
X16.61 Y-2.602
X16.565 Y-2.552
G2 X16.548 Y-1.821 I0.468 J0.376 F50
G1 X16.605 Y-1.749
X16.707 Y-1.607
X17.034 Y-1.148
X17.144 Y-0.964
X17.333 Y-0.632
X17.413 Y-0.505
X17.508 Y-0.381
X17.632 Y-0.243
X17.771 Y-0.11
X17.947 Y0.032
X18.139 Y0.164
X18.377 Y0.3
X18.634 Y0.42
X18.942 Y0.536
X19.268 Y0.629
X19.656 Y0.707
X20.065 Y0.755
X20.532 Y0.773
X21.047 Y0.751
X21.578 Y0.685
X22.147 Y0.567
X22.726 Y0.398
X23.213 Y0.213
X23.633 Y0.012
X23.817 Y-0.094
X24.065 Y-0.276
X24.266 Y-0.508
X24.412 Y-0.778
X24.496 Y-1.073
X24.514 Y-1.38
X24.479 Y-2.035
X24.465 Y-2.25
X24.412 Y-2.893
X24.378 Y-3.107
X24.272 Y-3.724
G2 X23.433 Y-4.147 I-0.587 J0.122 F1440
G1 X17.613 Y-1.454
X17.532 Y-1.409
X17.459 Y-1.352
G2 X17.333 Y-0.632 I0.406 J0.442 F50
G1 X18.184 Y0.868
X18.274 Y1.009
X18.383 Y1.155
X18.51 Y1.297
X18.671 Y1.451
X18.85 Y1.597
X19.074 Y1.751
X19.316 Y1.89
X19.608 Y2.029
X19.923 Y2.148
X20.288 Y2.254
X20.692 Y2.336
X21.127 Y2.389
X21.605 Y2.409
X22.105 Y2.389
X22.579 Y2.331
X23.025 Y2.241
X23.398 Y2.133
X23.647 Y2.039
X23.932 Y1.892
X24.176 Y1.685
X24.366 Y1.427
X24.493 Y1.133
X24.55 Y0.818
X24.554 Y0.75
X24.582 Y0.107
X24.581 Y-0.107
X24.514 Y-1.38
G2 X23.708 Y-1.89 I-0.598 J0.053 F1440
G1 X18.508 Y0.027
X18.437 Y0.059
X18.371 Y0.099
X18.31 Y0.148
G2 X18.184 Y0.868 I0.406 J0.442 F50
G1 X18.239 Y0.964
X18.344 Y1.178
X18.551 Y1.607
X18.638 Y1.821
X18.778 Y2.185
X18.84 Y2.327
X18.916 Y2.468
X19.015 Y2.62
X19.134 Y2.775
X19.282 Y2.938
X19.455 Y3.1
X19.661 Y3.264
X19.898 Y3.424
X20.168 Y3.576
X20.481 Y3.72
X20.813 Y3.842
X21.186 Y3.946
X21.587 Y4.024
X21.994 Y4.069
X22.388 Y4.081
X22.761 Y4.063
X23.094 Y4.019
X23.428 Y3.948
X23.435 Y3.946
X23.697 Y3.837
X23.931 Y3.679
X24.129 Y3.476
X24.282 Y3.237
X24.384 Y2.973
X24.431 Y2.694
X24.55 Y0.818
G2 X23.8 Y0.22 I-0.6 J-0.017 F1440
G1 X19.195 Y1.41
X19.131 Y1.431
X19.069 Y1.458
X19.01 Y1.493
G2 X18.778 Y2.185 I0.335 J0.498 F50
G1 X19.376 Y3.75
X19.451 Y3.925
X19.531 Y4.079
X19.629 Y4.235
X19.755 Y4.403
X19.903 Y4.571
X20.079 Y4.741
X20.287 Y4.911
X20.515 Y5.07
X20.78 Y5.224
X21.071 Y5.364
X21.381 Y5.482
X21.706 Y5.578
X22.015 Y5.642
X22.327 Y5.681
X22.615 Y5.694
X22.802 Y5.688
X23.114 Y5.641
X23.408 Y5.526
X23.668 Y5.347
X23.882 Y5.115
X24.038 Y4.842
X24.129 Y4.54
X24.273 Y3.75
X24.348 Y3.321
X24.384 Y3.107
X24.418 Y2.893
X24.431 Y2.694
G2 X23.697 Y2.091 I-0.6 J-0.017 F1440
G1 X19.813 Y2.978
X19.745 Y2.998
X19.68 Y3.025
X19.618 Y3.06
G2 X19.376 Y3.75 I0.328 J0.502 F50
G1 X19.391 Y3.789
X19.589 Y4.392
X19.605 Y4.444
X19.76 Y5.153
X19.799 Y5.298
X19.853 Y5.444
X19.925 Y5.598
X20.015 Y5.758
X20.129 Y5.927
X20.261 Y6.092
X20.421 Y6.262
X20.604 Y6.428
X20.806 Y6.583
X21.019 Y6.721
X21.259 Y6.85
X21.495 Y6.953
X21.726 Y7.033
X21.982 Y7.1
X22.218 Y7.141
X22.321 Y7.15
X22.639 Y7.144
X22.948 Y7.065
X23.23 Y6.919
X23.473 Y6.713
X23.662 Y6.458
X23.789 Y6.166
X23.873 Y5.892
X23.89 Y5.831
X24.039 Y5.035
X24.129 Y4.54
G2 X23.426 Y3.863 I-0.594 J-0.087 F1440
G1 X20.24 Y4.456
X20.166 Y4.475
X20.094 Y4.503
G2 X19.76 Y5.153 I0.257 J0.542 F50
G1 X20.061 Y6.535
X20.086 Y6.653
X20.129 Y6.821
X20.179 Y6.962
X20.242 Y7.104
X20.324 Y7.257
X20.424 Y7.41
X20.541 Y7.562
X20.669 Y7.702
X20.818 Y7.842
X20.982 Y7.972
X21.143 Y8.08
X21.326 Y8.183
X21.519 Y8.272
X21.593 Y8.299
X21.909 Y8.375
X22.233 Y8.376
X22.549 Y8.302
X22.839 Y8.158
X23.088 Y7.95
X23.283 Y7.691
X23.413 Y7.395
X23.789 Y6.166
G2 X23.085 Y5.424 I-0.58 J-0.155 F1440
G1 X20.552 Y5.965
X20.488 Y5.982
X20.426 Y6.006
G2 X20.086 Y6.653 I0.251 J0.545 F50
G1 X20.192 Y7.178
X20.214 Y7.392
X20.249 Y7.82
X20.253 Y7.885
X20.271 Y8.034
X20.305 Y8.18
X20.353 Y8.322
X20.415 Y8.459
X20.488 Y8.59
X20.572 Y8.714
X20.67 Y8.835
X20.781 Y8.952
X20.895 Y9.053
X21.022 Y9.149
X21.171 Y9.245
X21.319 Y9.323
X21.607 Y9.408
X21.906 Y9.425
X22.202 Y9.371
X22.476 Y9.249
X22.715 Y9.067
X22.905 Y8.834
X23.035 Y8.564
G2 X22.647 Y7.818 I-0.574 J-0.175 F1440
G1 X21.039 Y7.294
G2 X20.678 Y7.291 I-0.186 J0.57
X20.253 Y7.885 I0.175 J0.574 F50
G1 X20.277 Y8.249
X20.326 Y9.01
X20.343 Y9.159
X20.373 Y9.306
X20.421 Y9.448
X20.484 Y9.584
X20.562 Y9.712
X20.652 Y9.832
X20.753 Y9.943
X20.98 Y10.104
X21.238 Y10.208
X21.514 Y10.248
X21.791 Y10.222
X22.055 Y10.132
X22.29 Y9.983
X22.483 Y9.783
X22.625 Y9.543
G2 X22.233 Y8.744 I-0.557 J-0.222 F1440
G1 X21.092 Y8.416
G2 X20.754 Y8.417 I-0.166 J0.577
X20.326 Y9.01 I0.172 J0.575 F50
G1 X20.387 Y9.963
X20.397 Y10.113
X20.431 Y10.259
X20.562 Y10.487
X20.748 Y10.674
X20.974 Y10.807
X21.228 Y10.877
X21.491 Y10.88
X21.746 Y10.815
X21.976 Y10.687
X22.165 Y10.504
X22.301 Y10.279
G2 X22.355 Y9.952 I-0.716 J-0.285 F1440
X20.714 Y9.272 I-0.984 J0.053
X20.387 Y9.963 I0.657 J0.734 F50
G1 X20.386 Y10.177
X20.378 Y10.606
X20.375 Y10.756
X20.405 Y10.903
X20.459 Y11.043
X20.607 Y11.229
X20.8 Y11.369
X21.024 Y11.451
X21.261 Y11.47
X21.495 Y11.423
X21.707 Y11.315
X21.882 Y11.153
X22.007 Y10.951
X22.031 Y10.877 F1440
X22.047 Y10.802
X22.054 Y10.725
G2 X20.788 Y9.969 I-0.84 J-0.031
X20.378 Y10.606 I0.426 J0.725 F50
G1 X20.362 Y10.82
X20.329 Y11.205
X20.323 Y11.355
X20.351 Y11.503
X20.472 Y11.701
X20.648 Y11.852
X20.863 Y11.94
X21.095 Y11.956
X21.32 Y11.899
X21.516 Y11.774
X21.663 Y11.594
G2 X21.736 Y11.342 I-0.556 J-0.297 F1440
X20.796 Y10.624 I-0.705 J-0.051
X20.329 Y11.205 I0.235 J0.667 F50
G1 X20.307 Y11.463
X20.29 Y11.677
X20.292 Y11.731
X20.299 Y11.784
X20.31 Y11.838
X20.327 Y11.891
X20.35 Y11.944
X20.379 Y11.997
X20.416 Y12.05
X20.465 Y12.106
X20.518 Y12.153
X20.57 Y12.19
X20.676 Y12.247
X20.73 Y12.267
X20.783 Y12.281
X20.837 Y12.29
X20.89 Y12.294
X20.944 Y12.293
X20.997 Y12.288
X21.051 Y12.277
X21.105 Y12.262
X21.158 Y12.24
X21.212 Y12.213
X21.265 Y12.177
X21.319 Y12.133
X21.346 Y12.106
X21.391 Y12.052
X21.426 Y11.999
X21.615 Y11.677
X21.864 Y11.249
X21.962 Y11.053
X22.911 Y8.892
X22.996 Y8.678
X23.217 Y8.035
X23.413 Y7.395
G2 X23.134 Y6.72 I-0.58 J-0.155 F1440
G1 X23.053 Y6.673 Z-3.993
X22.974 Y6.627 Z-3.971
X22.898 Y6.583 Z-3.935
X22.829 Y6.543 Z-3.885
X22.767 Y6.507 Z-3.824
X22.714 Y6.477 Z-3.753
X22.671 Y6.452 Z-3.672
X22.64 Y6.434 Z-3.585
X22.621 Y6.423 Z-3.494
X22.615 Y6.419 Z-3.4
G0 Z15

(2D Pocket1 - 6mm end mill)
X-3.416 Y-10.518
Z15
Z5
G1 Z0.2 F50
X-3.411 Y-10.512 Z0.106
X-3.397 Y-10.495 Z0.015
X-3.374 Y-10.468 Z-0.072
X-3.342 Y-10.431 Z-0.153
X-3.302 Y-10.384 Z-0.224
X-3.256 Y-10.33 Z-0.285
X-3.204 Y-10.268 Z-0.335
X-3.147 Y-10.202 Z-0.371
X-3.088 Y-10.133 Z-0.393
X-3.027 Y-10.061 Z-0.4
X-2.649 Y-9.617
X-0.202 Y-6.745
G2 X0.202 I0.202 J-0.172
G1 X2.646 Y-9.614
X2.661 Y-9.632 F1440
X2.722 Y-9.703 Z-0.393
X2.781 Y-9.773 Z-0.371
X2.838 Y-9.839 Z-0.335
X2.89 Y-9.9 Z-0.285
X2.936 Y-9.954 Z-0.224
X2.976 Y-10.001 Z-0.153
X3.008 Y-10.038 Z-0.072
X3.031 Y-10.066 Z0.015
X3.045 Y-10.083 Z0.106
X3.05 Y-10.088 Z0.2
X0.555 Y-0.913 F50
X0.56 Y-0.918 Z0.106
X0.574 Y-0.935 Z0.015
X0.597 Y-0.962 Z-0.072
X0.629 Y-1 Z-0.153
X0.669 Y-1.046 Z-0.224
X0.715 Y-1.101 Z-0.285
X0.767 Y-1.162 Z-0.335
X0.824 Y-1.228 Z-0.371
X0.883 Y-1.298 Z-0.393
X0.944 Y-1.369 Z-0.4
X1.206 Y-1.677
X7.043 Y-8.529
G2 X6.815 Y-9.023 I-0.228 J-0.195
G1 X-6.82 Y-9.028
G2 X-7.048 Y-8.534 J0.3
G1 X-1.203 Y-1.673
G2 X0.343 Y-2.982 I0.771 J-0.657
G1 X-2.417 Y-6.26
X-2.496 Y-6.343
X-2.584 Y-6.417
X-6.277 Y-9.191
G2 X-7.22 Y-9.337 I-0.608 J0.81
G1 X-10.284 Y-8.265
G2 X-10.72 Y-6.652 I0.334 J0.956
G1 X-2.921 Y2.488
G2 X2.921 I2.921 J-2.488
G1 X10.719 Y-6.651
G2 X10.593 Y-8.089 I-0.77 J-0.657
X9.156 Y-7.939 I-0.644 J0.781
G1 X1.476 Y1.696
G3 X0 Y1.811 I-0.792 J-0.631
G1 X-9.949 Y-7.309
G2 X-11.224 Y-7.386 I-0.684 J0.747
G1 X-13.708 Y-5.607
G2 X-13.889 Y-4.126 I0.59 J0.823
G1 X-6.004 Y5.116
G2 X6.004 I6.004 J-5.116
G1 X13.887 Y-4.125
G2 X12.393 Y-5.49 I-0.771 J-0.657
G1 X1.361 Y5.784
G3 X-0.001 Y5.862 I-0.724 J-0.708
G1 X-13.118 Y-4.783
G2 X-14.526 Y-4.655 I-0.638 J0.786
G1 X-16.535 Y-2.303
G2 X-16.536 Y-0.988 I0.77 J0.658
G1 X-9.088 Y7.743
G2 X9.088 I9.088 J-7.743
G1 X16.542 Y-0.996
G2 X15.099 Y-2.411 I-0.771 J-0.657
G1 X1.275 Y9.854
G3 X0.004 Y9.914 I-0.672 J-0.758
G1 X-15.765 Y-1.645
G2 X-17.288 Y-1.242 I-0.599 J0.817
G1 X-18.675 Y1.855
G2 X-18.521 Y2.926 I0.924 J0.414
G1 X-12.172 Y10.37
G2 X12.172 I12.172 J-10.37
G1 X18.519 Y2.928
X18.535 Y2.91 F1440
X18.595 Y2.839 Z-0.393
X18.655 Y2.769 Z-0.371
X18.711 Y2.703 Z-0.335
X18.763 Y2.642 Z-0.285
X18.81 Y2.587 Z-0.224
X18.85 Y2.541 Z-0.153
X18.881 Y2.503 Z-0.072
X18.905 Y2.476 Z0.015
X18.919 Y2.459 Z0.106
X18.924 Y2.454 Z0.2
X-20.601 Y6.753 F50
X-20.596 Y6.759 Z0.106
X-20.582 Y6.775 Z0.015
X-20.558 Y6.803 Z-0.072
X-20.527 Y6.84 Z-0.153
X-20.487 Y6.887 Z-0.224
X-20.44 Y6.941 Z-0.285
X-20.388 Y7.002 Z-0.335
X-20.332 Y7.069 Z-0.371
X-20.272 Y7.138 Z-0.393
X-20.212 Y7.21 Z-0.4
X-19.742 Y7.761
X-15.267 Y13.007
G2 X15.267 I15.267 J-13.007
G1 X19.738 Y7.766
X19.753 Y7.748 F1440
X19.814 Y7.676 Z-0.393
X19.873 Y7.607 Z-0.371
X19.929 Y7.54 Z-0.335
X19.982 Y7.479 Z-0.285
X20.028 Y7.425 Z-0.224
X20.068 Y7.378 Z-0.153
X20.1 Y7.341 Z-0.072
X20.123 Y7.313 Z0.015
X20.137 Y7.297 Z0.106
X20.142 Y7.291 Z0.2
Z1
X-19.329 Y15.722 F50
Z0.14
X-19.326 Y15.728 Z0.056
X-19.315 Y15.745 Z-0.027
X-19.298 Y15.773 Z-0.105
X-19.275 Y15.81 Z-0.177
X-19.246 Y15.857 Z-0.242
X-19.213 Y15.912 Z-0.297
X-19.175 Y15.974 Z-0.341
X-19.134 Y16.04 Z-0.374
X-19.091 Y16.111 Z-0.393
X-19.046 Y16.182 Z-0.4
X-18.991 Y16.259
G2 X18.99 I18.991 J-16.259
G1 X19.046 Y16.183 F1440
X19.218 Y15.904
X19.267 Y15.824 Z-0.393
X19.315 Y15.746 Z-0.371
X19.36 Y15.672 Z-0.335
X19.402 Y15.603 Z-0.285
X19.44 Y15.542 Z-0.224
X19.472 Y15.49 Z-0.153
X19.498 Y15.448 Z-0.072
X19.516 Y15.417 Z0.015
X19.528 Y15.399 Z0.106
X19.532 Y15.392 Z0.2
G0 Z15

(2D Pocket2 - 6mm end mill)
X1.157 Y-18.353
Z15
Z5
G1 Z3.1 F50
X1.131 Y-18.364 Z2.918
X1.056 Y-18.396 Z2.754
X0.936 Y-18.44 Z2.622
X0.782 Y-18.489 Z2.534
X0.608 Y-18.533 Z2.5
G2 X-0.608 Y-12.964 Z2.187 I-0.608 J2.784
X0.608 Y-18.533 Z1.875 I0.608 J-2.784
X-0.608 Y-12.964 Z1.562 I-0.608 J2.784
X0.608 Y-18.533 Z1.249 I0.608 J-2.784
X-0.608 Y-12.964 Z0.937 I-0.608 J2.784
X0.608 Y-18.533 Z0.624 I0.608 J-2.784
X-0.608 Y-12.964 Z0.311 I-0.608 J2.784
X0.608 Y-18.533 Z-0.001 I0.608 J-2.784
X-0.608 Y-12.964 Z-0.314 I-0.608 J2.784
X0.608 Y-18.533 Z-0.627 I0.608 J-2.784
X-0.608 Y-12.964 Z-0.939 I-0.608 J2.784
X0.608 Y-18.533 Z-1.252 I0.608 J-2.784
X-0.608 Y-12.964 Z-1.565 I-0.608 J2.784
X0.608 Y-18.533 Z-1.877 I0.608 J-2.784
X-0.608 Y-12.964 Z-2.19 I-0.608 J2.784
X0.608 Y-18.533 Z-2.503 I0.608 J-2.784
X-0.608 Y-12.964 Z-2.815 I-0.608 J2.784
X0.608 Y-18.533 Z-3.128 I0.608 J-2.784
X-0.608 Y-12.964 Z-3.441 I-0.608 J2.784
X0.608 Y-18.533 Z-3.753 I0.608 J-2.784
X-0.608 Y-12.964 Z-4.066 I-0.608 J2.784
X2.834 Y-15.443 Z-4.233 I0.608 J-2.784
X0 Y-18.598 Z-4.4 I-2.834 J-0.306
X-13.587 Y-12.766 J18.742
G1 X-13.608 Y-12.734
X-13.616 Y-12.697
X-13.611 Y-12.66
X-13.593 Y-12.627
X-13.565 Y-12.603
X-13.529 Y-12.589
X-13.492
X-13.457 Y-12.602
G3 X13.457 I13.457 J22.624
G1 X13.492 Y-12.589
X13.529
X13.565 Y-12.603
X13.593 Y-12.627
X13.611 Y-12.66
X13.616 Y-12.697
X13.608 Y-12.734
X13.587 Y-12.766
G2 X0 Y-18.598 I-13.499 J12.703
G3 X-1.748 Y-19.716 I-0.009 J-1.912
G2 X-3.583 Y-20.684 I-1.545 J0.706
X-20.936 Y-2.048 I3.583 J20.734
G1 X-20.933 Y-2.009
X-20.918 Y-1.973
X-20.891 Y-1.945
X-20.856 Y-1.927
X-20.818 Y-1.921
X-20.779 Y-1.929
X-20.746 Y-1.949
X-20.721 Y-1.979
G3 X20.721 I20.721 J12.002
G1 X20.746 Y-1.949
X20.779 Y-1.929
X20.818 Y-1.921
X20.856 Y-1.927
X20.891 Y-1.945
X20.918 Y-1.973
X20.933 Y-2.009
X20.936 Y-2.048
G2 X0 Y-20.991 I-20.882 J2.038
X-3.583 Y-20.684 J21.041
G3 X-6.352 Y-21.841 I-0.476 J-2.753
G2 X-9.23 Y-22.695 I-1.972 J1.372
X-20.122 Y13.976 I9.23 J22.695
G3 X-0.061 Y-10.44 I20.122 J-3.916
G1 X0
G3 X20.122 Y13.976 J20.5
G2 X0 Y-24.5 I-20.122 J-13.976
X-9.23 Y-22.695 J24.5
G1 X-9.312 Y-22.654 Z-4.385 F1440
X-9.388 Y-22.6 Z-4.371
X-9.448 Y-22.542 Z-4.328
X-9.5 Y-22.476 Z-4.285
X-9.534 Y-22.42 Z-4.219
X-9.562 Y-22.359 Z-4.153
X-9.587 Y-22.278 Z-3.985
X-9.593 Y-22.249 Z-3.8
G0 Z15

(2D Contour1 - 6mm end mill)
X0.206 Y-11.747
Z15
Z5
G1 Z-3.8 F30
X0.205 Y-11.74 Z-3.894
Y-11.718 Z-3.985
X0.203 Y-11.682 Z-4.072
X0.201 Y-11.633 Z-4.153
X0.199 Y-11.572 Z-4.224
X0.197 Y-11.5 Z-4.285
X0.194 Y-11.42 Z-4.335
X0.19 Y-11.333 Z-4.371
X0.187 Y-11.241 Z-4.393
X0.183 Y-11.148 Z-4.4
X0.161 Y-10.548 F50
G2 X0.739 Y-9.926 I0.6 J0.022
G3 X19.03 Y16.213 I-0.739 J19.986
G2 X0 Y-25 I-19.03 J-16.213
X-19.03 Y16.213 J25
G3 X-0.059 Y-9.94 I19.03 J-6.153
G1 X0
G3 X0.739 Y-9.926 J20
G2 X1.36 Y-10.504 I0.022 J-0.6 F1440
G1 X1.383 Y-11.103
X1.386 Y-11.197 Z-4.393
X1.39 Y-11.289 Z-4.371
X1.393 Y-11.376 Z-4.335
X1.396 Y-11.456 Z-4.285
X1.398 Y-11.527 Z-4.224
X1.401 Y-11.588 Z-4.153
X1.402 Y-11.638 Z-4.072
X1.404 Y-11.674 Z-3.985
X1.405 Y-11.696 Z-3.894
Y-11.703 Z-3.8
G0 Z15
M9
G28 G91 Z0
G90
G28 G91 X0 Y0
G90
M30
%
