%
(1001)
(T2  D=4.762 CR=0 TAPER=118deg - ZMIN=-1 - center drill)
(T3  D=3 CR=0 TAPER=118deg - ZMIN=-17.5 - drill)
G90 G94
G17
G21
T3
G28 G91 Z0
G90

(Drill1 - centre drill)
M9
T2 M6
S2000 M3
G54
G0 X0 Y30.5
Z15
Z5
G1 Z-1 F30
G0 Z5
X-5.95 Y29.914
G1 Z-1 F30
G0 Z5
X-21.567 Y21.567
G1 Z-1 F30
G0 Z5
X-30.5 Y0
G1 Z-1 F30
G0 Z5
X-21.567 Y-21.567
G1 Z-1 F30
G0 Z5
X0 Y-30.5
G1 Z-1 F30
G0 Z5
X21.567 Y-21.567
G1 Z-1 F30
G0 Z5
X30.5 Y0
G1 Z-1 F30
G0 Z5
X21.567 Y21.567
G1 Z-1 F30
G0 Z5
Z15
M5
G28 G91 Z0
G90

(Drill2 - 3mm drill)
M00
T3 M6
S2000 M3
G54
G0 X0 Y30.5
Z15
Z5
Z2
G1 Z-4 F50
G0 Z-3.9
G1 Z-8 F50
G0 Z-7.9
G1 Z-12 F50
G0 Z5
Z-10
G1 Z-16 F50
G0 Z-15.9
G1 Z-17.5 F50
G0 Z5
X-21.567 Y21.567
Z2
G1 Z-4 F50
G0 Z-3.9
G1 Z-8 F50
G0 Z-7.9
G1 Z-12 F50
G0 Z5
Z-10
G1 Z-16 F50
G0 Z-15.9
G1 Z-17.5 F50
G0 Z5
X-30.5 Y0
Z2
G1 Z-4 F50
G0 Z-3.9
G1 Z-8 F50
G0 Z-7.9
G1 Z-12 F50
G0 Z5
Z-10
G1 Z-16 F50
G0 Z-15.9
G1 Z-17.5 F50
G0 Z5
X-21.567 Y-21.567
Z2
G1 Z-4 F50
G0 Z-3.9
G1 Z-8 F50
G0 Z-7.9
G1 Z-12 F50
G0 Z5
Z-10
G1 Z-16 F50
G0 Z-15.9
G1 Z-17.5 F50
G0 Z5
X0 Y-30.5
Z2
G1 Z-4 F50
G0 Z-3.9
G1 Z-8 F50
G0 Z-7.9
G1 Z-12 F50
G0 Z5
Z-10
G1 Z-16 F50
G0 Z-15.9
G1 Z-17.5 F50
G0 Z5
X21.567 Y-21.567
Z2
G1 Z-4 F50
G0 Z-3.9
G1 Z-8 F50
G0 Z-7.9
G1 Z-12 F50
G0 Z5
Z-10
G1 Z-16 F50
G0 Z-15.9
G1 Z-17.5 F50
G0 Z5
X30.5 Y0
Z2
G1 Z-4 F50
G0 Z-3.9
G1 Z-8 F50
G0 Z-7.9
G1 Z-12 F50
G0 Z5
Z-10
G1 Z-16 F50
G0 Z-15.9
G1 Z-17.5 F50
G0 Z5
X21.567 Y21.567
Z2
G1 Z-4 F50
G0 Z-3.9
G1 Z-8 F50
G0 Z-7.9
G1 Z-12 F50
G0 Z5
Z-10
G1 Z-16 F50
G0 Z-15.9
G1 Z-17.5 F50
G0 Z5
Z15
G28 G91 Z0
G90
G28 G91 X0 Y0
G90
M30
%
