%
(1001)
(T2  D=6.2 CR=0 TAPER=118deg - ZMIN=-13.863 - drill)
(T3  D=4.762 CR=0 TAPER=118deg - ZMIN=-5.5 - center drill)
(T5  D=8 CR=0 - ZMIN=-1 - flat end mill)
(T6  D=4 CR=0 TAPER=118deg - ZMIN=-10.5 - drill)
(T7  D=6 CR=0 - ZMIN=-4.5 - flat end mill)
G90 G94
G17
G21
T7
G28 G91 Z0
G90

(2D Pocket - 8mm end mill)
M9
T5 M6
S2000 M3
G54
G0 X1.824 Y-3.77
Z15
Z5
G1 Z3.3 F100
X1.861 Y-3.766 Z3.058
X1.969 Y-3.749 Z2.838
X2.136 Y-3.718 Z2.662
X2.345 Y-3.668 Z2.546
X2.575 Y-3.597 Z2.5
G3 X0.126 Y3.597 Z2.083 I-1.224 J3.597
X2.575 Y-3.597 Z1.666 I1.224 J-3.597
X0.126 Y3.597 Z1.249 I-1.224 J3.597
X2.575 Y-3.597 Z0.832 I1.224 J-3.597
X0.126 Y3.597 Z0.416 I-1.224 J3.597
X2.575 Y-3.597 Z-0.001 I1.224 J-3.597
X0.126 Y3.597 Z-0.418 I-1.224 J3.597
X2.575 Y-3.597 Z-0.835 I1.224 J-3.597
X5.151 Y0 Z-1 I-1.224 J3.597
X-5.151 I-5.151
X5.151 I5.151
X-1.666 Y0.008 I-3.409
X1.666 Y-0.008 I1.666 J-0.008
X-1.666 Y0.008 I-1.666 J0.008
G1 X-1.662 Y-0.116 Z-0.98
X-1.649 Y-0.238 Z-0.961
X-1.629 Y-0.348 Z-0.904
X-1.603 Y-0.456 Z-0.847
X-1.576 Y-0.541 Z-0.759
X-1.545 Y-0.624 Z-0.67
X-1.499 Y-0.728 Z-0.447
X-1.482 Y-0.763 Z-0.2
G0 Z15
T3
M5
G28 G91 Z0
G90

(2D Pocket - 6mm end mill)
M00
T7 M6
S2000 M3
G54
G0 X-9.364 Y-5.772
Z15
Z5
G1 Z3.1 F100
X-9.378 Y-5.748 Z2.918
X-9.421 Y-5.679 Z2.754
X-9.486 Y-5.569 Z2.622
X-9.567 Y-5.429 Z2.534
X-9.655 Y-5.272 Z2.5
G2 X0 Y11 Z1.705 I9.655 J5.272
G1 X0.019 Z1.704
G2 X11 Y0 Z1.101 I-0.019 J-11
X-11 Z-0.106 I-11
X0 Y11 Z-0.709 I11
G1 X0.019 Z-0.71
G2 X11 Y0 Z-1.312 I-0.019 J-11
X-11 Z-2.519 I-11
X0 Y11 Z-3.122 I11
G1 X0.019 Z-3.123
G2 X11 Y0 Z-3.726 I-0.019 J-11
X-4.73 Y-9.931 Z-4.5 I-11
X0 Y11 I4.73 J9.931 F30
G1 X0.019
G2 X11 Y0 I-0.019 J-11
X-4.73 Y-9.931 I-11
G1 X-4.811 Y-9.885 Z-4.485 F100
X-4.883 Y-9.827 Z-4.471
X-4.94 Y-9.766 Z-4.428
X-4.987 Y-9.697 Z-4.385
X-5.018 Y-9.638 Z-4.319
X-5.042 Y-9.576 Z-4.253
X-5.063 Y-9.494 Z-4.085
X-5.067 Y-9.465 Z-3.9
G0 Z5
X0.677 Y9.225
G1 Z3.1 F100
X0.648 Y9.227 Z2.918
X0.567 Y9.233 Z2.754
X0.44 Y9.24 Z2.622
X0.278 Y9.246 Z2.534
X0.098 Y9.249 Z2.5
X0 Y9.25 Z2.497
X-0.019 Z2.496
G3 X-9.25 Y0 Z1.989 I0.019 J-9.25
X9.25 Z0.974 I9.25
X0 Y9.25 Z0.467 I-9.25
G1 X-0.019 Z0.466
G3 X-9.25 Y0 Z-0.04 I0.019 J-9.25
X9.25 Z-1.055 I9.25
X0 Y9.25 Z-1.563 I-9.25
G1 X-0.019
G3 X-9.25 Y0 Z-2.07 I0.019 J-9.25
X9.25 Z-3.085 I9.25
X0 Y9.25 Z-3.592 I-9.25
G1 X-0.019 Z-3.593
G3 X-9.25 Y0 Z-4.1 I0.019 J-9.25
X-3.007 Y-8.748 Z-4.5 I9.25
X3.007 Y8.748 I3.007 J8.748 F30
X0 Y9.25 I-3.007 J-8.748
G1 X-0.019
G3 X-9.25 Y0 I0.019 J-9.25
X-3.007 Y-8.748 I9.25
G1 X-2.922 Y-8.784 Z-4.485 F100
X-2.843 Y-8.834 Z-4.471
X-2.78 Y-8.888 Z-4.428
X-2.725 Y-8.951 Z-4.385
X-2.688 Y-9.006 Z-4.319
X-2.657 Y-9.065 Z-4.253
X-2.627 Y-9.144 Z-4.085
X-2.619 Y-9.173 Z-3.9
G0 Z15
T2
M5
G28 G91 Z0
G90

(Spot drill)
M00
T3 M6
S6110 M3
G54
G0 X10 Y0
Z15
Z5
Z0.5
G1 Z-5.5 F736.6
G0 Z5
X0 Y10
Z0.5
G1 Z-5.5 F736.6
G0 Z5
X-10 Y0
Z0.5
G1 Z-5.5 F736.6
G0 Z5
X0 Y-10
Z0.5
G1 Z-5.5 F736.6
G0 Z5
Y0
Z3.5
G1 Z-2.5 F736.6
G0 Z5
Z15
T6
M5
G28 G91 Z0
G90

(Drill - 6.2mm centre hole)
M00
T2 M6
S3000 M3
G54
G0 X0 Y0
Z15
Z5
Z3.5
Z0.5
G1 Z-3.5 F30
G0 Z3.5
Z-1.5
G1 Z-5.5 F30
G0 Z3.5
Z-3.5
G1 Z-7.5 F30
G0 Z3.5
Z-5.5
G1 Z-9.5 F30
G0 Z3.5
Z-7.5
G1 Z-11.5 F30
G0 Z3.5
Z-9.5
G1 Z-13.5 F30
G0 Z3.5
Z-11.5
G1 Z-13.863 F30
G0 Z5
Z15
M5
G28 G91 Z0
G90

(Drill - 4mm mounting holes)
M00
T6 M6
S2000 M3
G54
G0 X10 Y0
Z15
Z5
Z0.5
G1 Z-10.5 F30
G0 Z5
X0 Y10
Z0.5
G1 Z-10.5 F30
G0 Z5
X-10 Y0
Z0.5
G1 Z-10.5 F30
G0 Z5
X0 Y-10
Z0.5
G1 Z-10.5 F30
G0 Z5
Z15
G28 G91 Z0
G90
G28 G91 X0 Y0
G90
M30
%
