%
(1001)
(T3  D=4.762 CR=0 TAPER=118deg - ZMIN=-5.2 - center drill)
(T7  D=6 CR=0 - ZMIN=-4.2 - flat end mill)
(T9  D=2.5 CR=0 TAPER=118deg - ZMIN=-9 - drill)
(T10  D=6 CR=0 TAPER=118deg - ZMIN=-16 - drill)
G90 G94
G17
G21
T3
G28 G91 Z0
G90

(2D Pocket - 6mm end mill)
M9
T7 M6
S2000 M3
G54
G0 X3.617 Y-9.323
Z15
Z5
G1 Z3.1 F50
X3.643 Y-9.313 Z2.918
X3.719 Y-9.283 Z2.754
X3.837 Y-9.235 Z2.622
X3.985 Y-9.172 Z2.534
X4.15 Y-9.098 Z2.5
G3 X10 Y0 Z2.101 I-4.15 J9.098
G1 Y0.02 Z2.1
G3 X0 Y10 Z1.552 I-10 J-0.02
Y-10 Z0.455 J-10
X10 Y0 Z-0.093 J10
G1 Y0.02 Z-0.094
G3 X0 Y10 Z-0.642 I-10 J-0.02
Y-10 Z-1.739 J-10
X6.801 Y-7.331 Z-2 J10
X10 Y0 I-6.801 J7.331
G1 Y0.02
G3 X0 Y10 I-10 J-0.02
Y-10 J-10
X6.801 Y-7.331 J10
G1 X6.828 Y-7.315
X6.858 Y-7.309
X6.889 Y-7.315
X6.915 Y-7.332
X7.096 Y-7.506
X7.115 Y-7.533
X7.122 Y-7.565
X7.116 Y-7.597
X7.098 Y-7.624
X7.07 Y-7.643
X7.038 Y-7.649
X7.004 Y-7.642
X6.976 Y-7.621
X6.959 Y-7.59
X6.956 Y-7.556
X6.967 Y-7.523
X6.991 Y-7.497
X7.023 Y-7.484
X7.057 Y-7.485
X7.089 Y-7.499
X7.156 Y-7.551
X7.179 Y-7.578
X7.189 Y-7.613
X7.183 Y-7.648
X7.162 Y-7.678
G2 X-7.162 Y7.678 I-7.162 J7.678
X0 Y10.5 I7.162 J-7.678
G1 X0.02
G2 X10.5 Y0 I-0.02 J-10.5
X7.162 Y-7.678 I-10.5
G1 X7.134 Y-7.695
X7.101 Y-7.7
X7.069 Y-7.692
X7.043 Y-7.672
X7.026 Y-7.643
X7.023 Y-7.61
X7.032 Y-7.578
X7.173 Y-7.322
G2 X8.171 Y-5.983 I5.35 J-2.944
G3 X9.146 Y-4.627 I-3.884 J3.824
X9.136 Y4.648 I-9.112 J4.627
G1 X9.084 Y4.935
X9.085 Y4.968
X9.099 Y4.998
X9.124 Y5.02
X9.156 Y5.031
X9.189 Y5.029
X9.218 Y5.013
X9.24 Y4.988
G2 X10.5 Y0 Z-2.182 I-9.24 J-4.988
X-8.443 Y-6.242 Z-3.1 I-10.5
X0 Y10.5 I8.443 J6.242
G1 X0.02
G2 X10.5 Y0 I-0.02 J-10.5
X0 Y-10.5 I-10.5
X-8.443 Y-6.242 J10.5
G1 X-8.458 Y-6.209
X-8.457 Y-6.173
X-8.441 Y-6.14
X-8.413 Y-6.118
X-8.337 Y-6.08
X-8.304 Y-6.072
X-8.271 Y-6.077
X-8.242 Y-6.095
X-8.223 Y-6.124
X-8.217 Y-6.157
X-8.225 Y-6.19
X-8.245 Y-6.217
X-8.275 Y-6.234
X-8.308 Y-6.238
X-8.341 Y-6.228
X-8.367 Y-6.205
X-8.381 Y-6.175
X-8.382 Y-6.141
X-8.37 Y-6.109
X-8.346 Y-6.085
X-8.136 Y-5.948
X-8.107 Y-5.936
X-8.076
X-8.047 Y-5.947
X-8.024 Y-5.968
G3 X10 Y0 I8.024 J5.968
G1 Y0.02
G3 X0 Y10 I-10 J-0.02
X-8.024 Y-5.968 J-10
X10 Y0 Z-3.974 I8.024 J5.968
G1 Y0.02
G3 X7.973 Y6.035 Z-4.2 I-10 J-0.02
X0 Y10 I-7.973 J-6.035
Y-10 J-10
X10 Y0 J10
G1 Y0.02
G3 X7.973 Y6.035 I-10 J-0.02
G1 X7.958 Y6.067
Y6.103
X7.973 Y6.135
X7.999 Y6.158
X8.072 Y6.199
X8.105 Y6.21
X8.139 Y6.206
X8.169 Y6.189
X8.189 Y6.162
X8.196 Y6.128
X8.19 Y6.095
X8.171 Y6.066
X8.142 Y6.048
X8.108 Y6.044
X8.075 Y6.053
X8.048 Y6.074
X8.033 Y6.105
X8.031 Y6.139
X8.042 Y6.171
X8.066 Y6.196
X8.273 Y6.337
X8.302 Y6.349
X8.333 Y6.35
X8.363 Y6.339
X8.386 Y6.318
G2 X10.5 Y0 I-8.386 J-6.318
X-10.5 I-10.5
X0 Y10.5 I10.5
G1 X0.02
G2 X8.386 Y6.318 I-0.02 J-10.5
G1 X8.497 Y6.169 Z-4.171
X8.594 Y6.033 Z-4.085
X8.669 Y5.924 Z-3.953
X8.717 Y5.853 Z-3.785
X8.734 Y5.829 Z-3.6
G0 Z15
T9
M5
G28 G91 Z0
G90

(Drill1 - centre drill)
M00
T3 M6
S2000 M3
G54
G0 X0 Y11.25
Z15
Z5
Z0.8
G1 Z-5.2 F100
G0 Z5
X-11.25 Y0
Z0.8
G1 Z-5.2 F100
G0 Z5
X0 Y-11.25
Z0.8
G1 Z-5.2 F100
G0 Z5
X11.25 Y0
Z0.8
G1 Z-5.2 F100
G0 Z5
X0
Z4.1
G1 Z-1.9 F100
G0 Z5
Z15
T10
M5
G28 G91 Z0
G90

(Drill2 - 2.5mm drill)
M00
T9 M6
S2000 M3
G54
G0 X0 Y11.25
Z15
Z5
Z0.8
Z-2.2
G1 Z-6.7 F100
G0 Z0.8
Z-4.7
G1 Z-9 F100
G0 Z5
X-11.25 Y0
Z0.8
Z-2.2
G1 Z-6.7 F100
G0 Z0.8
Z-4.7
G1 Z-9 F100
G0 Z5
X0 Y-11.25
Z0.8
Z-2.2
G1 Z-6.7 F100
G0 Z0.8
Z-4.7
G1 Z-9 F100
G0 Z5
X11.25 Y0
Z0.8
Z-2.2
G1 Z-6.7 F100
G0 Z0.8
Z-4.7
G1 Z-9 F100
G0 Z5
Z15
M5
G28 G91 Z0
G90

(Drill3 - 5.8mm drill)
M00
T10 M6
S4850 M3
G54
G0 X0 Y0
Z15
Z5
Z4.1
Z1.1
G1 Z-3.4 F100
G0 Z4.1
Z-1.4
G1 Z-5.9 F100
G0 Z4.1
Z-3.9
G1 Z-8.4 F100
G0 Z4.1
Z-6.4
G1 Z-10.9 F100
G0 Z4.1
Z-8.9
G1 Z-13.4 F100
G0 Z4.1
Z-11.4
G1 Z-15.9 F100
G0 Z4.1
Z-13.9
G1 Z-16 F100
G0 Z5
Z15
G28 G91 Z0
G90
G28 G91 X0 Y0
G90
M30
%
