%
(1001)
(T7  D=6 CR=0 - ZMIN=-5 - flat end mill)
(T11  D=10 CR=0 TAPER=118deg - ZMIN=-8 - drill)
G90 G94
G17
G21
T11
G28 G91 Z0
G90

(2D Pocket1 - 6mm end mill)
M9
T7 M6
S2000 M3
G54
G0 X-16.068 Y-11.877
Z15
Z5
G1 Z4 F50
Z-2.4
X-16.063 Y-11.882 Z-2.494
X-16.046 Y-11.896 Z-2.585
X-16.019 Y-11.92 Z-2.672
X-15.981 Y-11.952 Z-2.753
X-15.935 Y-11.991 Z-2.824
X-15.88 Y-12.038 Z-2.885
X-15.819 Y-12.09 Z-2.935
X-15.753 Y-12.146 Z-2.971
X-15.683 Y-12.206 Z-2.993
X-15.612 Y-12.267 Z-3
G2 X-13.874 Y-13.874 I-19.579 J-22.925
G3 X0.071 Y-19.65 I13.945 J13.945
X13.945 Y-13.844 J19.479
X19.65 Y0.071 I-14.119 J13.916
X0 Y19.65 I-19.579
X-19.65 Y0.071 J-19.65
X-13.874 Y-13.874 I19.721
X-8.204 Y-14.679 I3.37 J3.37
G2 X-2.551 Y-13.766 I4.104 J-7.451
G3 X0 Y-14 I2.551 J13.766
G1 X0.071
G3 X14 Y0 I-0.071 J14
X-14 I-14
X-2.551 Y-13.766 I14
G2 X-2.342 Y-14.205 I-0.055 J-0.295
G1 X-5.258 Y-19.543
G2 X-5.571 Y-19.695 I-0.263 J0.144
G1 X-7.147 Y-19.43
G2 X-7.065 Y-18.836 I0.05 J0.296
G1 X-6.972 Y-18.846 Z-3.007
X-6.881 Y-18.856 Z-3.029
X-6.794 Y-18.866 Z-3.065
X-6.714 Y-18.875 Z-3.115
X-6.643 Y-18.882 Z-3.176
X-6.582 Y-18.889 Z-3.247
X-6.534 Y-18.894 Z-3.328
X-6.498 Y-18.898 Z-3.415
X-6.476 Y-18.901 Z-3.506
X-6.469 Z-3.6
Z-4.4
X-6.461 Y-18.902 Z-4.494
X-6.439 Y-18.905 Z-4.585
X-6.404 Y-18.908 Z-4.672
X-6.355 Y-18.914 Z-4.753
X-6.294 Y-18.92 Z-4.824
X-6.223 Y-18.928 Z-4.885
X-6.143 Y-18.937 Z-4.935
X-6.056 Y-18.946 Z-4.971
X-5.965 Y-18.956 Z-4.993
X-5.872 Y-18.966 Z-5
G2 X-3.6 Y-19.305 I-3.174 J-29.079
G3 X0.071 Y-19.65 I3.672 J19.377
X13.945 Y-13.844 J19.479
X19.65 Y0.071 I-14.119 J13.916
X0 Y19.65 I-19.579
X-19.65 Y0.071 J-19.65
X-3.6 Y-19.305 I19.721
X1.56 Y-16.756 I0.89 J4.696
G2 X5.72 Y-12.778 I7.665 J-3.853
G3 X14 Y0 I-5.72 J12.778
X-14 I-14
X0 Y-14 I14
G1 X0.071
G3 X5.72 Y-12.778 I-0.071 J14
G1 X5.807 Y-12.747 Z-4.985
X5.898 Y-12.73 Z-4.971
X5.981 Y-12.726 Z-4.928
X6.065 Y-12.734 Z-4.885
X6.129 Y-12.749 Z-4.819
X6.192 Y-12.771 Z-4.753
X6.268 Y-12.808 Z-4.585
X6.293 Y-12.824 Z-4.4
G0 Z15
M5
G28 G91 Z0
G90

(Drill4 - 10mm drill)
M00
T11 M6
S2000 M3
G54
G0 X0 Y0
Z15
Z5
Z2
G1 Z-2 F30
G0 Z5
Z0
G1 Z-4 F30
G0 Z5
Z-2
G1 Z-6 F30
G0 Z5
Z-4
G1 Z-8 F30
G0 Z5
Z15
G28 G91 Z0
G90
G28 G91 X0 Y0
G90
M30
%
